!!!COM: Beethoven
!!!OTL: 7 Variations on a Quartet by Winter
!!!Variation: Theme a
**function	**harm	**kern	**kern
*	*	*clefG2	*clefG2
*	*	*k[b-]	*k[b-]
*M2/4	*M2/4	*M2/4	*M2/4
*F:	*F:	*F:	*F:
4T	4I	4r	4aa 4ccc
=1	=1	=1	=1
2T	2I	2f	8ff'L 8aa'
.	.	.	8cc'J 8ff'
.	.	.	8ff'L 8aa'
.	.	.	8aa'J 8ccc'
=2	=2	=2	=2
4T	4V7	(4c 4e 4g	(4gg 4bb-
4T	4I	4f)	4ff) 4aa
=3	=3	=3	=3
2T	2V	4c	8ee'L 8gg'
.	.	.	8dd'J 8ff'
.	.	4c	8cc'L 8ee'
.	.	.	8dd'J 8ff'
=4	=4	=4	=4
4T	4V	8c	8ee 8gg
.	.	8r	8r
4T	4I	4r	4aa 4ccc
=5	=5	=5	=5
2T	2I	2f	8ff'L 8aa'
.	.	.	8cc'J 8ff'
.	.	.	8ff'L 8aa'
.	.	.	8aa'J 8ccc'
=6	=6	=6	=6
4T	4V7	(4c 4e 4g	(4gg 4bb-
4T	4I	4f) 4a	4ff) 4aa
=7	=7	=7	=7
4P	4iib	8B-L	8ddL 8gg
.	.	8B-J	8ddJ 8gg
4D	4V7	8cL	(8b-L 8ee
.	.	8cJ	16b-L 16dd
.	.	.	16eeJJ)
*	*	*clefF4	*
=8	=8	=8	=8
4T	4I	4F	8a 8ff
.	.	.	8r
*-	*-	*-	*-
!!!COM: Beethoven
!!!OTL: 7 Variations on a Quartet by Winter
!!!Variation: Theme b
**function	**harm	**kern	**kern
*	*	*clefF4	*clefG2
*	*	*k[b-]	*k[b-]
*M2/4	*M2/4	*M2/4	*M2/4
*F:	*F:	*F:	*F:
4T	4I	4r	4a 4cc
=9	=9	=9	=9
2T	2I	4F 4c	8fL 8a
.	.	.	8cJ 8f
.	.	4r	8fL 8a
.	.	.	8aJ 8cc
=10	=10	=10	=10
.	.	.	q8a q8cc
4T	4V7b	(4E 4c	(4g 4b-
4T	4I	4F) 4c	4f) 4a
=11	=11	=11	=11
2T	2V	8C 8c	8eL 8g
.	.	8r	8dJ 8f
.	.	8C	8cL 8e
.	.	8r	8dJ 8f
=12	=12	=12	=12
4T	4V	4C	4e 4g
4T	4I	4r	4a 4cc
=13	=13	=13	=13
2T	2I	4F 4c	8fL 8a
.	.	.	8cJ 8f
.	.	4r	8fL 8a
.	.	.	8aJ 8cc
=14	=14	=14	=14
.	.	.	q8a q8cc
4T	4V7b	(4E 4c	(4g 4b-
4T	4I	4F) 4c	4f) 4a
=15	=15	=15	=15
4D	4Cc/V	8G	8eL 8g
.	.	8r	8eJ 8g
4D	4V/V	8GG	8fL 8a
.	.	8r	8dJ 8b
=16	=16	=16	=16
2D	2I/V	2C	4e 4cc
.	.	.	(8fL 8dd
.	.	.	8gJ) 8ee
=17	=17	=17	=17
4D	4Cc/V	8G 8e	(8ccL
.	.	8r	16ggJk)
.	.	.	16r
4D	4V/V	8G 8d	(8bL
.	.	8r	16ggJk)
.	.	.	16r
=18	=18	=18	=18
2D	2I/V	2C	4e 4cc
.	.	.	(8fL 8dd
.	.	.	8gJ) 8ee
=19	=19	=19	=19
4D	4Cc/V	8G 8e	(8ccL
.	.	8r	16ggJk)
.	.	.	16r
4D	4V/V	8G 8d	(8bL
.	.	8r	16ggJk)
.	.	.	16r
=20	=20	=20	=20
2D	2I/V	4C;	4e; 4cc;
*-	*-	*-	*-
!!!COM: Beethoven
!!!OTL: 7 Variations on a Quartet by Winter
!!!Variation: Theme c
**function	**harm	**kern	**kern
*	*	*clefF4	*clefG2
*	*	*k[b-]	*k[b-]
*M2/4	*M2/4	*M2/4	*M2/4
*F:	*F:	*F:	*F:
4T	4I	4r	4cc
=21	=21	=21	=21
2T	2I	8F 8c	(8aL
.	.	8r	8fJ
.	.	8F 8c	8aL 8ff
.	.	8r	8ccJ)
=22	=22	=22	=22
.	.	.	q8cc
4T	4V7b	8E 8c	(4g 4b-
.	.	8r	.
4T	4I	8F 8c	4f) 4a
.	.	8r	.
=23	=23	=23	=23
2T	2V7	8B-L 8c	8eL 8g
.	.	8AJ 8c	8fJ
.	.	.	q8cc
.	.	8EL 8c	8gL 8b-
.	.	8FJ 8c	8fJ 8a
=24	=24	=24	=24
4T	4V	4C 4c	4e 4g
4T	4I	4r	4cc
=25	=25	=25	=25
2T	2I	2F 2c	8aL 8cc
.	.	.	8aJ
.	.	.	(16ffLL
.	.	.	16ee
.	.	.	16dd
.	.	.	16ccJJ)
=26	=26	=26	=26
.	.	.	q8cc
4T	4V7b	(4E 4c	(4g 4b-
4T	4I	4F) 4c	4f) 4a
=27	=27	=27	=27
*	*	*	*^
2D	2V7/V	2G 2B	4.g	8gL
.	.	.	.	8ffJ
.	.	.	.	8eeL
.	.	.	8fJ	8dd
*	*	*	*v	*v
=28	=28	=28	=28
*	*	*^	*
4D	4V	4C	8EL	4e 4cc
.	.	.	8GJ	.
*	*	*v	*v	*
*-	*-	*-	*-
!!!COM: Beethoven
!!!OTL: 7 Variations on a Quartet by Winter
!!!Variation: Theme d
**function	**harm	**kern	**kern
*	*	*clefF4	*clefG2
*	*	*k[b-]	*k[b-]
*M2/4	*M2/4	*M2/4	*M2/4
*F:	*F:	*F:	*F:
*	*	*^	*
4D	4I/V	4C	8EL	(16ggLL
.	.	.	.	16ff
.	.	.	8GJ	16ee
.	.	.	.	16ddJJ)
=29	=29	=29	=29	=29
.	.	.	.	q8dd
4D	4I/V	4C	8EL	(16ccLL
.	.	.	.	16b
.	.	.	8GJ	16cc
.	.	.	.	16eeJJ)
.	.	.	.	q8ee
4D	4V7/V	4GG	8FL	(16ddLL
.	.	.	.	16cc
.	.	.	8GJ	16dd
.	.	.	.	16bJJ)
=30	=30	=30	=30	=30
2D	2I/V	4C	8EL	4cc
.	.	.	8GJ	.
.	.	4C	8EL	(16ggLL
.	.	.	.	16ff
.	.	.	8GJ	16ee
.	.	.	.	16ddJJ)
=31	=31	=31	=31	=31
.	.	.	.	q8dd
4D	4I/V	4C	8EL	(16ccLL
.	.	.	.	16b
.	.	.	8GJ	16cc
.	.	.	.	16eeJJ)
.	.	.	.	q8ee
4D	4V7/V	4GG	8FL	(16ddLL
.	.	.	.	16cc
.	.	.	8GJ	16dd
.	.	.	.	16bJJ)
=32	=32	=32	=32	=32
4D	4I/V	8C	8E	8cc
*	*	*v	*v	*
.	.	8r	8r
4D	4I/V	4r	4a 4cc
=33	=33	=33	=33
2D	2V/V/V	8D 8d	(8b-L 8dd
.	.	8r	8aJ) 8cc
.	.	8D 8d	8g'L 8b-'
.	.	8r	8f#'J 8a'
=34	=34	=34	=34
2D	2V/V	8G 8d	8g 8b-
.	.	8r	8r
.	.	8G	4g 4b-
.	.	8r	.
=35	=35	=35	=35
2D	2V	8C 8c	(8aL 8cc
.	.	8r	8gJ) 8b-
.	.	8C 8c	8f'L 8a'
.	.	8r	8e'J 8g'
=36	=36	=36	=36
4T	4I	8F 8c	4f 4a
.	.	8r	.
*-	*-	*-	*-
!!!COM: Beethoven
!!!OTL: 7 Variations on a Quartet by Winter
!!!Variation: Theme e
**function	**harm	**kern	**kern
*	*	*clefF4	*clefG2
*	*	*k[b-]	*k[b-]
*M2/4	*M2/4	*M2/4	*M2/4
*F:	*F:	*F:	*F:
4T	4I	4r	4a 4cc
=37	=37	=37	=37
2T	2I	2F 2c	8fL 8a
.	.	.	8cJ 8f
.	.	.	8fL 8a
.	.	.	8aJ 8cc
=38	=38	=38	=38
.	.	.	q8a q8cc
4T	4V7b	(4E 4c	(4g 4b-
4T	4I	4F) 4c	4f) 4a
=39	=39	=39	=39
4P	4IV	8BB-L 8B-	8f'L 8dd'
.	.	8BB-J 8B-	8f'J 8dd'
4D	4V	8CL 8A	8f'L 8cc'
.	.	8CJ 8G	8B-'J 8e'
=40	=40	=40	=40
2T	2I	4F	4A 4f
.	.	4r	4r
*-	*-	*-	*-
!!!COM: Beethoven
!!!OTL: 7 Variations on a Quartet by Winter
!!!Variation: Theme f
**function	**harm	**kern	**kern
*	*	*clefF4	*clefG2
*	*	*k[b-]	*k[b-]
*M2/4	*M2/4	*M2/4	*M2/4
*F:	*F:	*F:	*F:
=41	=41	=41	=41
2T	2V7	8GL 8B-	12ccL
.	.	.	12ee
.	.	8CJ	.
.	.	.	12ddJ
.	.	8GL 8B-	12ccL
.	.	.	12dd
.	.	8CJ	.
.	.	.	12eeJ
=42	=42	=42	=42
2T	2Ic	8FL 8A	12ffL
.	.	.	12aa
.	.	8CJ	.
.	.	.	12ggJ
.	.	8FL 8A	12ffL
.	.	.	12ee
.	.	8CJ	.
.	.	.	12ddJ
=43	=43	=43	=43
2T	2V	8EL 8G	12ccL
.	.	.	12b
.	.	8CJ	.
.	.	.	12ccJ
.	.	8EL 8G	12ccL
.	.	.	12dd
.	.	8CJ	.
.	.	.	12b-J
=44	=44	=44	=44
2T	2Ic	8FL 8A	4a
.	.	8CJ	.
.	.	8FL 8A	4r
.	.	8CJ	.
=45	=45	=45	=45
2T	2V7	8GL 8B-	12ccL
.	.	.	12ee
.	.	8CJ	.
.	.	.	12ddJ
.	.	8GL 8B-	12ccL
.	.	.	12dd
.	.	8CJ	.
.	.	.	12eeJ
=46	=46	=46	=46
4T	4I	8F 8A	12ffL
.	.	.	12aa
.	.	8r	.
.	.	.	12ggJ
4T	4vi	8D 8A	12ffL
.	.	.	12ee
.	.	8r	.
.	.	.	12ffJ
=47	=47	=47	=47
4P	4iib	8BB- 8G	12ddL
.	.	.	12gg
.	.	8r	.
.	.	.	12ffJ
4D	4V7	8C 8B-	12eeL
.	.	.	12dd
.	.	8r	.
.	.	.	12ccJ
=48	=48	=48	=48
4T	4I	4F 4A	4ff
4T	4V	4C	4G 4B- 4e
=49	=49	=49	=49
4T	4I	4FF	4A 4f
*-	*-	*-	*-
!!!COM: Beethoven
!!!OTL: 7 Variations on a Quartet by Winter
!!!Variation: Variation 1 a
**function	**harm	**kern	**kern
*	*	*clefG2	*clefG2
*	*	*k[b-]	*k[b-]
*M2/4	*M2/4	*M2/4	*M2/4
*F:	*F:	*F:	*F:
4T	4I	4r	4cc 4ccc
=50	=50	=50	=50
2T	2I	8r	(16bb-LL
.	.	.	16aa
.	.	(8cc	16gg
.	.	.	16ffJJ
.	.	8aL	16eeLL
.	.	.	16ff
.	.	8fJ)	16gg
.	.	.	16aaJJ)
=51	=51	=51	=51
4T	4V7b	8r	(8cccL
.	.	8e	16ggJk) 16bb-
.	.	.	16r
4T	4I	8r	(8bb-L
.	.	8f	16ffJk) 16aa
.	.	.	16r
=52	=52	=52	=52
2T	2V	8r	(16aaLL
.	.	.	16ee) 16gg
.	.	8c	(16gg
.	.	.	16ddJJ) 16ff
.	.	8cL	(16ffLL
.	.	.	16cc) 16ee
.	.	8cJ	(16gg
.	.	.	16ddJJ) 16ff
=53	=53	=53	=53
4T	4V	8c	(8aaL
.	.	8r	16eeJk) 16gg
.	.	.	16r
4T	4I	4r	4cc 4ccc
=54	=54	=54	=54
2T	2I	8r	(16bb-LL
.	.	.	16aa
.	.	(8cc	16gg
.	.	.	16ffJJ
.	.	8aL	16eeLL
.	.	.	16ff
.	.	8fJ)	16gg
.	.	.	16aaJJ)
=55	=55	=55	=55
4T	4V7b	8r	(8cccL
.	.	8e	16ggJk) 16bb-
.	.	.	16r
4T	4I	8r	(8bb-L
.	.	8f	16ffJk) 16aa
.	.	.	16r
=56	=56	=56	=56
4P	4iib	8r	(8aaL
.	.	8B-	16ddJk) 16gg
.	.	.	16r
4D	4V7	8r	(8ffL
.	.	8c	16b-Jk) 16ee
.	.	.	16r
*	*	*clefF4	*
=57	=57	=57	=57
4T	4I	8r	(8ggL
.	.	8F	16aJk 16ff)
.	.	.	16r
*-	*-	*-	*-
!!!COM: Beethoven
!!!OTL: 7 Variations on a Quartet by Winter
!!!Variation: Variation 1 b
**function	**harm	**kern	**kern
*	*	*clefF4	*clefG2
*	*	*k[b-]	*k[b-]
*M2/4	*M2/4	*M2/4	*M2/4
*F:	*F:	*F:	*F:
4T	4I	4r	4c 4cc
=58	=58	=58	=58
2T	2I	8r	(16b-LL
.	.	.	16a
.	.	(8c	16g
.	.	.	16fJJ
.	.	8AL	16eLL
.	.	.	16f
.	.	8FJ)	16g
.	.	.	16aJJ)
=59	=59	=59	=59
4T	4V7b	8r	(16ccLL
.	.	.	16g
.	.	8E	16b-)
.	.	.	16b-'JJ
4T	4I	8r	(16b-LL
.	.	.	16f
.	.	8F	16a)
.	.	.	16a'JJ
=60	=60	=60	=60
2T	2V	8r	(16aLL
.	.	.	16e) 16g
.	.	8C	(16g
.	.	.	16dJJ) 16f
.	.	8CL	(16fLL
.	.	.	16c) 16e
.	.	8CJ	(16g
.	.	.	16dJJ) 16f
=61	=61	=61	=61
4T	4V	8C	(8aL
.	.	8r	16eJk) 16g
.	.	.	16r
4T	4I	4r	4c 4cc
=62	=62	=62	=62
2T	2I	8r	(16b-LL
.	.	.	16a
.	.	(8c	16g
.	.	.	16fJJ
.	.	8AL	16eLL
.	.	.	16f
.	.	8FJ)	16g
.	.	.	16aJJ)
=63	=63	=63	=63
4T	4V7b	8r	(16ccLL
.	.	.	16g
.	.	8E	16b-)
.	.	.	16b-'JJ
4T	4I	8r	(16b-LL
.	.	.	16f
.	.	8F	16a)
.	.	.	16a'JJ
=64	=64	=64	=64
4D	4Cc/V	8r	(16aLL
.	.	.	16e
.	.	8G	16g)
.	.	.	16g'JJ
4D	4V/V	8r	(16aLL
.	.	.	16f
.	.	8GG	16b
.	.	.	16dJJ)
=65	=65	=65	=65
2D	2V	8C'L	(16ccLL
.	.	.	16e
.	.	8CC'J	16cc#
.	.	.	16eJJ
.	.	4r	16ddLL
.	.	.	16f
.	.	.	16ee
.	.	.	16gJJ)
=66	=66	=66	=66
4D	4Cc/V	8cL 8e	16r
.	.	.	(16ccLL
.	.	8GJ	16gg)
.	.	.	16gg'JJ
4D	4V/V	8dL 8f	16r
.	.	.	(16bLL
.	.	8GJ	16gg)
.	.	.	16gg'JJ
=67	=67	=67	=67
2D	2V	8c'L	(16ccLL
.	.	.	16e
.	.	8C'J	16cc#
.	.	.	16eJJ
.	.	4r	16ddLL
.	.	.	16f
.	.	.	16ee
.	.	.	16gJJ)
=68	=68	=68	=68
4D	4Cc/V	8cL 8e	16r
.	.	.	(16ccLL
.	.	8GJ	16gg)
.	.	.	16gg'JJ
4D	4V/V	8dL 8f	16r
.	.	.	(16bLL
.	.	8GJ	16gg)
.	.	.	16gg'JJ
=69	=69	=69	=69
4D	4V	4c; 4e;	4cc;
*-	*-	*-	*-
!!!COM: Beethoven
!!!OTL: 7 Variations on a Quartet by Winter
!!!Variation: Variation 1 c
**function	**harm	**kern	**kern
*	*	*clefF4	*clefG2
*	*	*k[b-]	*k[b-]
*M2/4	*M2/4	*M2/4	*M2/4
*F:	*F:	*F:	*F:
4T	4I	4r	(16bLL
.	.	.	16cc
.	.	.	16dd
.	.	.	16ccJJ
=70	=70	=70	=70
2T	2I	8r	16b-LL
.	.	.	16a
.	.	(8c	16ff
.	.	.	16ccJJ
.	.	8A	16aaLL
.	.	.	16ff
.	.	8F)	16cc
.	.	.	16aJJ)
=71	=71	=71	=71
*	*	*^	*
4T	4V7b	4E	8E	(16ccLL
.	.	.	.	16b-
.	.	.	4c	16gg)
.	.	.	.	16gg'JJ
4T	4I	4F	.	(16b-LL
.	.	.	.	16a
.	.	.	8c	16ff)
.	.	.	.	16ff'JJ
*	*	*v	*v	*
=72	=72	=72	=72
2T	2V7	8B-'L 8c'	16g'LL
.	.	.	(16ee
.	.	8A'J 8c'	16a)
.	.	.	(16ffJJ
.	.	8E'L 8c'	16b-LL)
.	.	.	(16gg
.	.	8F'J 8c'	16a)
.	.	.	(16ffJJ
=73	=73	=73	=73
4T	4V	8C 8c	16gLL)
.	.	.	(16ee
.	.	8r	16cc)
.	.	.	(16ccJJ
4T	4I	8r	16bLL
.	.	.	16cc
.	.	8r	16dd
.	.	.	16ccJJ
=74	=74	=74	=74
2T	2I	8r	16b-LL
.	.	.	16a
.	.	(8c	16ff
.	.	.	16ccJJ
.	.	8AL	16aaLL
.	.	.	16ff
.	.	8FJ)	16cc
.	.	.	16aJJ)
=75	=75	=75	=75
*	*	*^	*
4T	4V7b	4E	8E	(16ccLL
.	.	.	.	16b-
.	.	.	4c	16gg)
.	.	.	.	16gg'JJ
4T	4I	4F	.	(16b-LL
.	.	.	.	16a
.	.	.	([8c	16ff)
.	.	.	.	16ff'JJ
=76	=76	=76	=76	=76
2D	2V7/V	4.G	8cL]	(16a-LL
.	.	.	.	16g
.	.	.	8BJ	16ff)
.	.	.	.	16ff'JJ
.	.	.	4d)	(16bLL
.	.	.	.	16g
.	.	8G	.	16b
.	.	.	.	16fJJ)
*	*	*v	*v	*
=77	=77	=77	=77
2D	2V	8c 8e	(16ccLL
.	.	.	16cc#
.	.	8r	16dd
.	.	.	16ee-JJ
.	.	4r	16eeLL
.	.	.	16ff
.	.	.	16ff#
.	.	.	16ggJJ)
*-	*-	*-	*-
!!!COM: Beethoven
!!!OTL: 7 Variations on a Quartet by Winter
!!!Variation: Variation 1 d
**function	**harm	**kern	**kern
*	*	*clefF4	*clefG2
*	*	*k[b-]	*k[b-]
*M2/4	*M2/4	*M2/4	*M2/4
*F:	*F:	*F:	*F:
=78	=78	=78	=78
4D	4Cc/V	(8GL	(16aaLL
.	.	.	16gg
.	.	8cJ 8e	16ff
.	.	.	16eeJJ)
4D	4V7/V	8GL	(16eeLL
.	.	.	16dd
.	.	8dJ) 8f	16cc
.	.	.	16bJJ)
=79	=79	=79	=79
2D	2V	8c 8e	(16ccLL
.	.	.	16cc#
.	.	8r	16dd
.	.	.	16ee-JJ
.	.	4r	16eeLL
.	.	.	16ff
.	.	.	16ff#
.	.	.	16ggJJ)
=80	=80	=80	=80
4D	4Cc/V	(8GGL	(16aaLL
.	.	.	16gg
.	.	8CJ 8E	16ff
.	.	.	16eeJJ)
4D	4V7/V	8GGL	(16eeLL
.	.	.	16dd
.	.	8DJ) 8F	16cc
.	.	.	16bJJ)
=81	=81	=81	=81
4D	4V	8C 8E	(16bLL
.	.	.	16cc
.	.	8r	16b
.	.	.	16ccJJ
4D	4I	4r	16bLL
.	.	.	16cc
.	.	.	16dd
.	.	.	16ccJJ)
=82	=82	=82	=82
2D	2V/ii	8r	(16ee-LL
.	.	.	16a
.	.	8f#	16dd)
.	.	.	16dd'JJ
.	.	8r	(16cc#LL
.	.	.	16dd
.	.	8d	16f#)
.	.	.	16f#'JJ
=83	=83	=83	=83
4P	4ii	8r	(16ccLL
.	.	.	16d
.	.	8G	16b-)
.	.	.	16b-'JJ
4P	4V7d/V	8r	(16ccLL
.	.	.	16d
.	.	8F	16b)
.	.	.	16b'JJ
=84	=84	=84	=84
2D	2V	8r	(16ddLL
.	.	.	16g
.	.	8E	16cc)
.	.	.	16cc'JJ
.	.	8r	(16bLL
.	.	.	16cc
.	.	8C	16e)
.	.	.	16e'JJ
=85	=85	=85	=85
4T	4I	8r	(16b-LL
.	.	.	16c
.	.	8FF	16a)
.	.	.	16a'JJ
*-	*-	*-	*-
!!!COM: Beethoven
!!!OTL: 7 Variations on a Quartet by Winter
!!!Variation: Variation 1 e
**function	**harm	**kern	**kern
*	*	*clefG2	*clefG2
*	*	*k[b-]	*k[b-]
*M2/4	*M2/4	*M2/4	*M2/4
*F:	*F:	*F:	*F:
4T	4I	4r	(16bLL
.	.	.	16cc
.	.	.	16dd
.	.	.	16ccJJ
=86	=86	=86	=86
2T	2I	8r	16b-LL
.	.	.	16a
.	.	(8c	16ff
.	.	.	16ccJJ
.	.	8AL	16aaLL
.	.	.	16ff
.	.	8FJ	16cc
.	.	.	16aJJ)
=87	=87	=87	=87
4T	4V7	8EL	(16ccLL
.	.	.	16b-
.	.	8CJ	16gg)
.	.	.	16gg'JJ
4T	4I	8FL	(16b-LL
.	.	.	16a
.	.	8AJ)	16ff)
.	.	.	16ff'JJ
=88	=88	=88	=88
8P	8iib	(8B-L	(16a-LL
.	.	.	16g
8P	8V7b/V	8BJ)	16ff)
.	.	.	16ff'JJ
8D	8Cc	8c'L	(16aLL
.	.	.	16ff
8D	8V7	8C'J	16b-
.	.	.	16eeJJ)
=89	=89	=89	=89
2T	2I	8F'L	16ff'LL
.	.	.	(16cc
.	.	8FF'J	16b
.	.	.	16ccJJ
.	.	4r	16b-LL
.	.	.	16a
.	.	.	16g
.	.	.	16fJJ)
*-	*-	*-	*-
!!!COM: Beethoven
!!!OTL: 7 Variations on a Quartet by Winter
!!!Variation: Variation 1 f
**function	**harm	**kern	**kern
*	*	*clefF4	*clefG2
*	*	*k[b-]	*k[b-]
*M2/4	*M2/4	*M2/4	*M2/4
*F:	*F:	*F:	*F:
=90	=90	=90	=90
2T	2V7	8C 8G 8B-	16r
.	.	.	(16bLL
.	.	8r	16dd
.	.	.	16ccJJ)
.	.	8C 8G 8B-	16r
.	.	.	(16dd#LL
.	.	8r	16ee
.	.	.	16ccJJ)
=91	=91	=91	=91
2T	2Ic	8C 8F 8A	16r
.	.	.	(16eeLL
.	.	8r	16ff
.	.	.	16ccJJ)
.	.	8C 8F 8A	16r
.	.	.	(16gg#LL
.	.	8r	16aa
.	.	.	16ccJJ)
=92	=92	=92	=92
2T	2V7	8C 8E 8G	16r
.	.	.	(16bbLL
.	.	8r	16ccc
.	.	.	16ccJJ)
.	.	8C 8E 8G	16r
.	.	.	(16aaLL
.	.	8r	16bb-
.	.	.	16ccJJ)
=93	=93	=93	=93
2T	2I	8F 8A	16r
.	.	.	(16gg#LL
.	.	8r	16bb-
.	.	.	16aaJJ
.	.	4r	16ggLL
.	.	.	16ff
.	.	.	16ee
.	.	.	16ddJJ)
*	*	*clefG2	*
=94	=94	=94	=94
2T	2V7	8c 8g 8b-	16r
.	.	.	(16bLL
.	.	8r	16dd
.	.	.	16ccJJ)
.	.	8c 8g 8b-	16r
.	.	.	(16dd#LL
.	.	8r	16ff
.	.	.	16eeJJ)
=95	=95	=95	=95
4T	4I	8f 8a	16r
.	.	.	(16eeLL
.	.	8r	16gg
.	.	.	16ffJJ)
4T	4vi	8d 8f 8a	16r
.	.	.	16gg#LL
.	.	8r	16aa
.	.	.	16ffJJ
=96	=96	=96	=96
4P	4iib	8B- 8d 8g	16r
.	.	.	(16ccc#LL
.	.	8r	16ddd
.	.	.	16ggJJ)
4D	4V7	8c 8g 8b-	16r
.	.	.	(16aaLL
.	.	8r	16bb-
.	.	.	16eeJJ)
=97	=97	=97	=97
4T	4I	8f 8a	16r
.	.	.	(16eeLL
.	.	8r	16ff
.	.	.	16ccJJ)
*	*	*clefF4	*
4T	4V	8C 8E	16r
.	.	.	(16aLL
.	.	8r	16b-
.	.	.	16gJJ)
=98	=98	=98	=98
4T	4I	8FF 8F	8f
.	.	8r	8r
*-	*-	*-	*-
!!!COM: Beethoven
!!!OTL: 7 Variations on a Quartet by Winter
!!!Variation: Variation 2 a
**function	**harm	**kern	**kern
*	*	*clefF4	*clefG2
*	*	*k[b-]	*k[b-]
*M2/4	*M2/4	*M2/4	*M2/4
*F:	*F:	*F:	*F:
4T	4Ib	4A	4cc
=99	=99	=99	=99
2T	2I	(16FLL	(16aLL
.	.	32GL	32b-L
.	.	32AJJ	32ccJJ
.	.	32B-LL	32ddLL
.	.	32c	32ee
.	.	32d	32ff
.	.	32eJJJ)	32ggJJJ)
.	.	8f'L	8aa'L
.	.	8a'J	8ccc'J
=100	=100	=100	=100
*	*	*	*^
4T	4Vb	(8gL	8r	(4bb-
.	.	8eJ	4gg	.
4T	4I	8fL	.	4aa)
.	.	16AL	[8ff	.
.	.	16BJJ)	.	.
=101	=101	=101	=101	=101
2T	2V	8c'L	16ffLK]	(8ggL
.	.	.	8ee	.
.	.	8C'J	.	8ffJ
.	.	.	8dd	.
.	.	8C'L	.	8eeL
.	.	.	8cc	.
.	.	8C'J	.	8ffJ
.	.	.	[16ddJk	.
=102	=102	=102	=102	=102
4.T	4.V	8C'L	16ddLK]	8ggL
.	.	.	8ee	.
.	.	8C'J	.	8aa
.	.	.	8ff	.
.	.	8C'L	.	8gg)
.	.	.	16eeJ	.
*	*	*	*v	*v
8T	8Ib	8A'J	8cc'J
=103	=103	=103	=103
2T	2I	(16FLL	(16aLL
.	.	32GL	32b-L
.	.	32AJJ	32ccJJ
.	.	32B-LL	32ddLL
.	.	32c	32ee
.	.	32d	32ff
.	.	32eJJJ)	32ggJJJ)
.	.	8f'L	8aa'L
.	.	8a'J	8ccc'J
=104	=104	=104	=104
*	*	*	*^
4T	4Vb	(8gL	8r	(4bb-
.	.	8eJ	4gg	.
4T	4vi	8fL	.	[4aa
.	.	8dJ)	8ff	.
=105	=105	=105	=105	=105
8P	8iib	(8B-L	4dd	8aaL]
8P	8V7/V	8BJ	.	8ggJ
8D	8Cc	8cL	8aL	8ffL
8D	8V7	8CJ)	[8b-J	[8eeJ
=106	=106	=106	=106	=106
4.T	4.I	8FL	4b-]	8eeL]
.	.	8CJ	.	8ggJ
.	.	8FF	8a	8ff)
*	*	*	*v	*v
*-	*-	*-	*-
!!!COM: Beethoven
!!!OTL: 7 Variations on a Quartet by Winter
!!!Variation: Variation 2 b
**function	**harm	**kern	**kern
*	*	*clefF4	*clefG2
*	*	*k[b-]	*k[b-]
*M2/4	*M2/4	*M2/4	*M2/4
*F:	*F:	*F:	*F:
8T	8Ib	8AA'	8c'
=107	=107	=107	=107
2T	2I	(16FFLL	(16ALL
.	.	32GGL	32B-L
.	.	32AAJJ	32cJJ
.	.	32BB-LL	32dLL
.	.	32C	32e
.	.	32D	32f
.	.	32EJJJ)	32gJJJ)
.	.	8F'L	8a'L
.	.	8A'J	8cc'J
=108	=108	=108	=108
*	*	*	*^
4T	4V7b	(8GL	(4b-	8r
.	.	8EJ	.	4gg
8T	8I	8FL	4a	.
8T	8V7b/V	8BBJ)	.	[8ff
=109	=109	=109	=109	=109
2T	2V	8C'L	8gL	16ffLK]
.	.	.	.	8ee
.	.	8CC'J	8fJ	.
.	.	.	.	8dd
.	.	8CC'L	8eL	.
.	.	.	.	8cc
.	.	8CC'J	8fJ)	.
.	.	.	.	[16ddJk
=110	=110	=110	=110	=110
4.T	4.V	4.CC	(4f#	8ddL]
.	.	.	.	8dd#J
.	.	.	8g)	8ee
*	*	*	*v	*v
8T	8Ib	8AA'	8c'
=111	=111	=111	=111
2T	2I	(16FFLL	(16ALL
.	.	32GGL	32B-L
.	.	32AAJJ	32cJJ
.	.	32BB-LL	32dLL
.	.	32C	32e
.	.	32D	32f
.	.	32EJJJ)	32gJJJ)
.	.	8F'L	8a'L
.	.	8A'J	8cc'J
=112	=112	=112	=112
*	*	*	*^
4T	4V7b	(8GL	4b-	8r
.	.	8EJ	.	4gg
8T	8I	8FL	4a	.
8T	8V7b/V	8BBJ)	.	[8ff
=113	=113	=113	=113	=113
4D	4V	(8CL	8gL	16ffLK]
.	.	.	.	8ee
.	.	8CCJ	(8gJ	.
.	.	.	.	8ee
4D	4V/V	8GGL	8aL	.
.	.	.	.	8ff
.	.	8GGGJ)	8bJ)	.
.	.	.	.	16ddJk
*	*	*	*v	*v
=114	=114	=114	=114
2D	2V	(16CCLL	4cc
.	.	32DDL	.
.	.	32EEJJ	.
.	.	32FFLL	.
.	.	32GG	.
.	.	32AA	.
.	.	32BBJJJ)	.
.	.	8C'L	4r
.	.	8E'J	.
=115	=115	=115	=115
2D	2V/V	4.GG 4.G	(16ggLL
.	.	.	32ffL
.	.	.	32eeJJ
.	.	.	32ddLL
.	.	.	32cc
.	.	.	32b
.	.	.	32aJJJ)
.	.	.	8g'L
.	.	8GG' 8G'	8f'J 8b'
=116	=116	=116	=116
2D	2V	(16CLL	8e 8cc
.	.	32DL	.
.	.	32EJJ	.
.	.	32FLL	8r
.	.	32G	.
.	.	32A	.
.	.	32BJJJ)	.
.	.	8c'L	4r
.	.	8e'J	.
=117	=117	=117	=117
2D	2V7/V	4.G 4.g	(16ggLL
.	.	.	32ffL
.	.	.	32eeJJ
.	.	.	32ddLL
.	.	.	32cc
.	.	.	32b
.	.	.	32aJJJ)
.	.	.	8g'L
.	.	8G 8f	8b'J
=118	=118	=118	=118
4.D	4.V	4.c; 4.e;	4.cc;
*-	*-	*-	*-
!!!COM: Beethoven
!!!OTL: 7 Variations on a Quartet by Winter
!!!Variation: Variation 2 c
**function	**harm	**kern	**kern
*	*	*clefF4	*clefG2
*	*	*k[b-]	*k[b-]
*M2/4	*M2/4	*M2/4	*M2/4
*F:	*F:	*F:	*F:
8T	8I	8r	8cc'
=119	=119	=119	=119
2T	2I	2r	(32aLLL
.	.	.	32f
.	.	.	32g
.	.	.	32aJJ
.	.	.	32b-LL
.	.	.	32cc
.	.	.	32dd
.	.	.	32eeJJJ)
.	.	.	8ff'L
.	.	.	8cc'J
=120	=120	=120	=120
4T	4V7b	(32ELLL	(4b-
.	.	32F	.
.	.	32G	.
.	.	32AJJ	.
.	.	32B-LL	.
.	.	32c	.
.	.	32d	.
.	.	32eJJJ)	.
4T	4I	8f'L	4a)
.	.	8c'J	.
=121	=121	=121	=121
*	*	*^	*
2T	2V7	8B-L	[2c	(8gL
.	.	8AJ	.	8fJ
.	.	8GL	.	8eL 8b-
.	.	8FJ	.	[8fJ [8a
=122	=122	=122	=122	=122
4T	4V	4.C	4.c]	8fL] 8a]
.	.	.	.	8d#J 8f#
4T	4I	.	.	8e) 8g
*	*	*v	*v	*
.	.	8c'	8r
=123	=123	=123	=123
2T	2I	(32ALLL	2r
.	.	32F	.
.	.	32G	.
.	.	32AJJ	.
.	.	32B-LL	.
.	.	32c	.
.	.	32d	.
.	.	32eJJJ)	.
.	.	8f'L	.
.	.	8c'J	.
=124	=124	=124	=124
8T	8V7d	(8B-	(32eLLL
.	.	.	32f
.	.	.	32g
.	.	.	32aJJ
4.T	4.Ib	4A	32b-LL
.	.	.	32cc
.	.	.	32dd
.	.	.	32eeJJJ)
.	.	.	[4ff
.	.	8A-)	.
=125	=125	=125	=125
*	*	*^	*
2D	2V7/V	2G	(8GnL	8ffL]
.	.	.	8BJ	(16eeL
.	.	.	.	16ddJJ)
.	.	.	8dL	(16ddLL
.	.	.	.	16cc)
.	.	.	8fJ)	(16cc
.	.	.	.	16bJJ)
*	*	*v	*v	*
=126	=126	=126	=126
4D	4V	8eL	(8ccL
.	.	.	q16dd
.	.	.	q16cc
.	.	.	q16bn
.	.	8cJ	16ccL
.	.	.	16ddJJ)
*-	*-	*-	*-
!!!COM: Beethoven
!!!OTL: 7 Variations on a Quartet by Winter
!!!Variation: Variation 2 d
**function	**harm	**kern	**kern
*	*	*clefF4	*clefG2
*	*	*k[b-]	*k[b-]
*M2/4	*M2/4	*M2/4	*M2/4
*F:	*F:	*F:	*F:
4D	4V	4r	(8eeL
.	.	.	q16ff
.	.	.	q16ee
.	.	.	q16dd
.	.	.	16eeL
.	.	.	16ffJJ)
=127	=127	=127	=127
4D	4Ic/V	8GL	(16ff#LL
.	.	.	16gg)
.	.	8cJ 8e	16ee'
.	.	.	16cc'JJ
4D	4V7/V	8GL	(16eeLL
.	.	.	16ff)
.	.	8dJ 8f	16dd'
.	.	.	16b'JJ
=128	=128	=128	=128
2D	2I/V	8eL	24ccLL
.	.	.	24dd
.	.	.	24ccJ
.	.	8cJ	24bL
.	.	.	24cc
.	.	.	24ddJJ
.	.	4r	24eeLL
.	.	.	24ff
.	.	.	24eeJ
.	.	.	24ddL
.	.	.	24ee
.	.	.	24ffJJ
=129	=129	=129	=129
4D	4Ic/V	8GGL	24ff#LL
.	.	.	24gg
.	.	.	24aaJ
.	.	8CJ 8E	24ggL
.	.	.	24ee
.	.	.	24ccJJ
4D	4V7/V	8GGL	24eeLL
.	.	.	24ff
.	.	.	24ggJ
.	.	8DJ 8F	24ffL
.	.	.	24dd
.	.	.	24bJJ
=130	=130	=130	=130
2D	2I/V	4C 4E	(4cc
.	.	4r	4cc#)
=131	=131	=131	=131
2D	2V/ii	4r	8dd'L
.	.	.	8dd'J
*	*	*clefG2	*
.	.	8r	8.ddL
.	.	8f#	.
.	.	.	32cc#LL
.	.	.	32ddJJJ
=132	=132	=132	=132
4P	4ii	8g'L	(4.b-
.	.	8g'J	.
4P	4V/V	8.gL	.
.	.	.	8b)
.	.	32f#LL	.
.	.	32gJJJ	.
=133	=133	=133	=133
2D	2Vb	4.e	8cc'L
.	.	.	8cc'J
.	.	.	8.ccL
.	.	8e	.
.	.	.	32bLL
.	.	.	32ccJJJ
=134	=134	=134	=134
4T	4I	8f'L	[4a
.	.	8f'J	.
16T	16I	16f	16aLL]
*-	*-	*-	*-
!!!COM: Beethoven
!!!OTL: 7 Variations on a Quartet by Winter
!!!Variation: Variation 2 e
**function	**harm	**kern	**kern
*	*	*clefF4	*clefG2
*	*	*k[b-]	*k[b-]
*M2/4	*M2/4	*M2/4	*M2/4
*F:	*F:	*F:	*F:
8.T	8.I	16FFLL	(16A
.	.	16AA	16c
.	.	16CJJ	16fJJ)
=135	=135	=135	=135
2T	2I	16F'LL	16a'LL
.	.	(32GL	(32b-L
.	.	32AJJ	32ccJJ
.	.	32B-LL	32ddLL
.	.	32c	32ee
.	.	32d	32ff
.	.	32eJJJ)	32ggJJJ)
.	.	8f'L	8aa'L
.	.	8a'J	8ccc'J
=136	=136	=136	=136
*	*	*	*^
4T	4V7b	(8gL	8r	(4bb-
.	.	8eJ	4gg	.
4T	4I	8fL	.	4aa)
.	.	8dJ)	[8ff	.
=137	=137	=137	=137	=137
4P	4IV	(8B-L	8ffL]	(4ddd
.	.	8BJ)	8ffJ	.
4D	4V7	8c'L	8aa'L	8ccc'L)
.	.	8C'J	8b-'J	8ee'J
=138	=138	=138	=138	=138
4T	4I	8FL	8a	8ff
*	*	*	*v	*v
.	.	8FFJ	8r
*-	*-	*-	*-
!!!COM: Beethoven
!!!OTL: 7 Variations on a Quartet by Winter
!!!Variation: Variation 2 f
**function	**harm	**kern	**kern
*	*	*clefF4	*clefG2
*	*	*k[b-]	*k[b-]
*M2/4	*M2/4	*M2/4	*M2/4
*F:	*F:	*F:	*F:
.	.	.	q8bn
4T	4V	4r	8ccL
.	.	.	q8bn
.	.	.	8ccJ
=139	=139	=139	=139
2T	2V7	4C' 4G' 4B-'	32r
.	.	.	(32cLLL
.	.	.	32d
.	.	.	32eJJ
.	.	.	32fLL
.	.	.	32g
.	.	.	32a
.	.	.	32bJJJ)
.	.	8r	8cc'L
.	.	8C' 8G' 8B-'	8ee'J
=140	=140	=140	=140
2T	2Ic	4C' 4F' 4A'	32r
.	.	.	(32fLLL
.	.	.	32g
.	.	.	32aJJ
.	.	.	32b-LL
.	.	.	32cc
.	.	.	32dd
.	.	.	32eeJJJ)
.	.	8r	8ff'L
.	.	8C' 8F' 8A'	8aa'J
=141	=141	=141	=141
2T	2V	4C' 4E' 4G'	32r
.	.	.	(32ccLLL
.	.	.	32dd
.	.	.	32eeJJ
.	.	.	32ffLL
.	.	.	32gg
.	.	.	32aa
.	.	.	32bbJJJ)
.	.	8r	8ccc'L
.	.	8C' 8E' 8G'	8bb-'J
=142	=142	=142	=142
2T	2I	4F 4A	16aa'LL
.	.	.	16ccc'
.	.	.	16aa'
.	.	.	16ff'JJ
.	.	4r	16cc'LL
.	.	.	16a'
.	.	.	16f'
.	.	.	16cc'JJ
=143	=143	=143	=143
2T	2V7	32r	4c
.	.	(32CCLLL	.
.	.	32DD	.
.	.	32EEJJ	.
.	.	32FFLL	.
.	.	32GG	.
.	.	32AA	.
.	.	32BBJJJ)	.
.	.	8C'L	8r
.	.	8E'J	8g' 8b-' 8cc'
=144	=144	=144	=144
2T	2I	32r	4f' 4a' 4cc'
.	.	(32FFLLL	.
.	.	32GG	.
.	.	32AAJJ	.
.	.	32BB-LL	.
.	.	32C	.
.	.	32D	.
.	.	32EJJJ)	.
.	.	8F'L	8r
.	.	8A'J	8f 8cc 8ff
=145	=145	=145	=145
4P	4IV	8BB-	(32ddLLL
.	.	.	32ee
.	.	.	32ff
.	.	.	32ggJJ
.	.	8r	32aaLL
.	.	.	32bb-
.	.	.	32ccc
.	.	.	32dddJJJ)
4D	4V7	8C 8G 8B-	(32eeLLL
.	.	.	32ff
.	.	.	32gg
.	.	.	32aaJJ
.	.	8r	32bb-LL
.	.	.	32ccc
.	.	.	32ddd
.	.	.	32eeeJJJ)
=146	=146	=146	=146
4T	4I	8F 8A	16r
.	.	.	(32fffLLL
.	.	.	32eeeJJ
.	.	8r	32dddLL
.	.	.	32ccc
.	.	.	32bb-
.	.	.	32aaJJJ
4T	4V	8C 8E	32ggLLL
.	.	.	32ff
.	.	.	32ee
.	.	.	32ddJJ
.	.	8r	32ccLL
.	.	.	32b-
.	.	.	32a
.	.	.	32gJJJ)
=147	=147	=147	=147
4T	4I	8FF 8F	8f
.	.	8r	8r
*-	*-	*-	*-
!!!COM: Beethoven
!!!OTL: 7 Variations on a Quartet by Winter
!!!Variation: Variation 3 a
**function	**harm	**kern	**kern
*	*	*clefG2	*clefG2
*	*	*k[b-]	*k[b-]
*M2/4	*M2/4	*M2/4	*M2/4
*F:	*F:	*F:	*F:
4T	4I	8cc	16r
.	.	.	16cc'LL
.	.	8r	16dd'
.	.	.	16ee'JJ
=148	=148	=148	=148
2T	2I	8a	16r
.	.	.	16ff'LL
.	.	8r	16gg'
.	.	.	16aa'JJ
.	.	8f	16r
.	.	.	16aa'LL
.	.	8r	16bb-'
.	.	.	16ccc'JJ
=149	=149	=149	=149
4T	4V7b	8e	16r
.	.	.	16ccc'LL
.	.	8r	16gg'
.	.	.	16bb-'JJ
4T	4I	8f	16r
.	.	.	16bb-'LL
.	.	8r	16ff'
.	.	.	16aa'JJ
=150	=150	=150	=150
2T	2V	8cL	16r
.	.	.	16aa'LL
.	.	8cJ	16ee'
.	.	.	16gg'JJ
.	.	8cL	16dd'LL
.	.	.	16ff'
.	.	8cJ	16cc'
.	.	.	16ee'JJ
=151	=151	=151	=151
4T	4V	8c	16dd'LL
.	.	.	16ff'
.	.	8r	16ee'
.	.	.	16gg'JJ
4T	4I	8cc	16r
.	.	.	16cc'LL
.	.	8r	16dd'
.	.	.	16ee'JJ
=152	=152	=152	=152
2T	2I	8a	16r
.	.	.	16ff'LL
.	.	8r	16gg'
.	.	.	16aa'JJ
.	.	8f	16r
.	.	.	16aa'LL
.	.	8r	16bb-'
.	.	.	16ccc'JJ
=153	=153	=153	=153
4T	4V7b	8e	16r
.	.	.	16ccc'LL
.	.	8r	16gg'
.	.	.	16bb-'JJ
4T	4I	8f	16r
.	.	.	16bb-'LL
.	.	8r	16ff'
.	.	.	16aa'JJ
*	*	*clefF4	*
=154	=154	=154	=154
4P	4iib	8B-L	16r
.	.	.	16aa'LL
.	.	8B-J	16dd'
.	.	.	16gg'JJ
4D	4V7	8cL	16r
.	.	.	16ff'LL
.	.	8CJ	16b-'
.	.	.	16ee'JJ
=155	=155	=155	=155
4T	4I	8FL	16r
.	.	.	16gg'LL
.	.	8FFJ	16a'
.	.	.	16ff'JJ
*-	*-	*-	*-
!!!COM: Beethoven
!!!OTL: 7 Variations on a Quartet by Winter
!!!Variation: Variation 3 b
**function	**harm	**kern	**kern
*	*	*clefF4	*clefG2
*	*	*k[b-]	*k[b-]
*M2/4	*M2/4	*M2/4	*M2/4
*F:	*F:	*F:	*F:
4T	4V	16r	8cc' 8ccc'
.	.	16C'LL	.
.	.	16D'	8r
.	.	16E'JJ	.
=156	=156	=156	=156
2T	2I	16r	8a' 8aa'
.	.	16F'LL	.
.	.	16G'	8r
.	.	16A'JJ	.
.	.	16r	8f' 8ff'
.	.	16A'LL	.
.	.	16B-'	8r
.	.	16c'JJ	.
=157	=157	=157	=157
4T	4V7d	16r	8e' 8ee'
.	.	16c'LL	.
.	.	16G'	8r
.	.	16B-'JJ	.
4T	4Ib	16r	8f' 8ff'
.	.	16B-'LL	.
.	.	16F'	8r
.	.	16A'JJ	.
=158	=158	=158	=158
2T	2V	16r	8cc'L 8ccc'
.	.	16A'LL	.
.	.	16E'	8cc'J 8ccc'
.	.	16G'JJ	.
.	.	16D'LL	8cc'L 8ccc'
.	.	16F'	.
.	.	16C'	8cc'J 8ccc'
.	.	16E'JJ	.
=159	=159	=159	=159
2T	2V	16D'LL	8cc'L 8ccc'
.	.	16F'	.
.	.	16E'	8cc'J 8ccc'
.	.	16G'JJ	.
.	.	16r	8cc' 8ccc'
.	.	16C'LL	.
.	.	16D'	8r
.	.	16E'JJ	.
=160	=160	=160	=160
2T	2I	16r	8a' 8aa'
.	.	16F'LL	.
.	.	16G'	8r
.	.	16A'JJ	.
.	.	16r	8f' 8ff'
.	.	16A'LL	.
.	.	16B-'	8r
.	.	16c'JJ	.
=161	=161	=161	=161
4T	4V7d	16r	8e' 8ee'
.	.	16c'LL	.
.	.	16G'	8r
.	.	16B-'JJ	.
4T	4Ib	16r	8f' 8ff'
.	.	16B-'LL	.
.	.	16F'	8r
.	.	16A'JJ	.
=162	=162	=162	=162
4D	4Vb	16r	8g'L 8gg'
.	.	16A'LL	.
.	.	16E'	8g'J 8gg'
.	.	16G'JJ	.
4D	4V7c/V	16r	8a'L 8aa'
.	.	16G'LL	.
.	.	16D'	8b'J 8bb'
.	.	16F'JJ	.
=163	=163	=163	=163
4D	4V	16CLL	(4cc 4ccc
.	.	16E	.
.	.	16D	.
.	.	16CJJ	.
4D	4Vb/V/V	16BBLL	8dd'L) 8ddd'
.	.	16AA	.
.	.	16GG	8ee'J 8eee'
.	.	16FF#JJ	.
=164	=164	=164	=164
4D	4Cc/V	8GGL	16r
.	.	.	(16aaLL
.	.	8CJ 8E	16cc
.	.	.	16ggJJ)
4D	4V7/V	8GGL	16r
.	.	.	(16aaLL
.	.	8DJ 8F	16b
.	.	.	16ggJJ)
=165	=165	=165	=165
4D	4V	16CLL	8cc'L
.	.	16E	.
.	.	16D	8cc'J 8ccc'
.	.	16CJJ	.
4D	4Vb/V/V	16BBLL	8dd'L 8ddd'
.	.	16AA	.
.	.	16GG	8ee'J 8eee'
.	.	16FF#JJ	.
=166	=166	=166	=166
4D	4Cc/V	8GGL	16r
.	.	.	(16aaLL
.	.	8CJ 8E	16cc
.	.	.	16ggJJ)
4D	4V7/V	8GGL	16r
.	.	.	(16aaLL
.	.	8DJ 8F	16b
.	.	.	16ggJJ)
=167	=167	=167	=167
4D	4V	4C; 4E;	4cc;
*-	*-	*-	*-
!!!COM: Beethoven
!!!OTL: 7 Variations on a Quartet by Winter
!!!Variation: Variation 3 c
**function	**harm	**kern	**kern
*	*	*clefF4	*clefG2
*	*	*k[b-]	*k[b-]
*M2/4	*M2/4	*M2/4	*M2/4
*F:	*F:	*F:	*F:
4T	4I	8c	16r
.	.	.	16f'LL 16a'
.	.	8r	16g' 16b-'
.	.	.	16a'JJ 16cc'
=168	=168	=168	=168
2T	2I	8A	16r
.	.	.	16a'LL 16ff'
.	.	8r	16b-' 16gg'
.	.	.	16cc'JJ 16aa'
.	.	8F	16r
.	.	.	16ff'LL 16aa'
.	.	8r	16gg' 16bb-'
.	.	.	16aa'JJ 16ccc'
=169	=169	=169	=169
4T	4V7b	8E	16r
.	.	.	16aa'LL 16ccc'
.	.	8r	16ff#' 16aa'
.	.	.	16gg'JJ 16bb-'
4T	4I	8F	16r
.	.	.	16gg'LL 16bb-'
.	.	8r	16ee' 16gg#'
.	.	.	16ff'JJ 16aa'
=170	=170	=170	=170
2T	2V7	8CL 8B-	16r
.	.	.	16ee' 16gg'
.	.	8CJ 8A	16r
.	.	.	16ff'
.	.	8CL 8G	16r
.	.	.	16ee' 16bb-'
.	.	8CJ 8F	16r
.	.	.	16ff' 16aa'
=171	=171	=171	=171
4T	4V	8C 8c	16r
.	.	.	16ff'LL 16aa'
.	.	8r	16dd#' 16ff#'
.	.	.	16ee'JJ 16gg'
4T	4I	8cL	16r
.	.	.	16f'LL 16a'
.	.	8CJ	16g' 16b-'
.	.	.	16a'JJ 16cc'
=172	=172	=172	=172
2T	2I	8AL	16r
.	.	.	16a'LL 16ff'
.	.	8AAJ	16b-' 16gg'
.	.	.	16cc'JJ 16aa'
.	.	8FL	16r
.	.	.	16ff'LL 16aa'
.	.	8FFJ	16gg' 16bb-'
.	.	.	16aa'JJ 16ccc'
=173	=173	=173	=173
4T	4V7b	8EL	16r
.	.	.	16aa'LL 16ccc'
.	.	8EEJ	16ff#' 16aa'
.	.	.	16gg'JJ 16bb-'
4T	4I	8FL	16r
.	.	.	16gg'LL 16bb-'
.	.	8FFJ	16ee' 16gg#'
.	.	.	16ff'JJ 16aa'
=174	=174	=174	=174
4P	4vi	8DL	16r
.	.	.	16ff'LL 16aa'
.	.	8DDJ	16ee' 16gg'
.	.	.	16dd'JJ 16ff'
4P	4V/V	8GL	16r
.	.	.	16dd'LL 16ff'
.	.	8GGJ	16cc' 16ee'
.	.	.	16b'JJ 16dd'
=175	=175	=175	=175
2D	2V	16r	8e'L 8cc'
.	.	16CLL	.
.	.	16D	8ee'J 8gg'
.	.	16EJJ	.
.	.	16r	8ee'L 8gg'
.	.	16ELL	.
.	.	16F	8ee'J 8gg'
.	.	16F#JJ	.
*-	*-	*-	*-
!!!COM: Beethoven
!!!OTL: 7 Variations on a Quartet by Winter
!!!Variation: Variation 3 d
**function	**harm	**kern	**kern
*	*	*clefF4	*clefG2
*	*	*k[b-]	*k[b-]
*M2/4	*M2/4	*M2/4	*M2/4
*F:	*F:	*F:	*F:
=176	=176	=176	=176
4D	4Cc/V	8GGL	16r
.	.	.	16ee'LL 16gg'
.	.	8GJ	16dd' 16ff'
.	.	.	16cc'JJ 16ee'
4D	4V7/V	8GGL	16r
.	.	.	16f'LL 16dd'
.	.	8GJ	16e' 16cc'
.	.	.	16d'JJ 16b'
=177	=177	=177	=177
2D	2V	16r	8e'L 8cc'
.	.	16CLL	.
.	.	16D	8ee'J 8gg'
.	.	16EJJ	.
.	.	16r	8ee'L 8gg'
.	.	16ELL	.
.	.	16F	8ee'J 8gg'
.	.	16F#JJ	.
=178	=178	=178	=178
4D	4Cc/V	8GGL	16r
.	.	.	16ee'LL 16gg'
.	.	8GJ	16dd' 16ff'
.	.	.	16cc'JJ 16ee'
4D	4V7/V	8GGL	16r
.	.	.	16f'LL 16dd'
.	.	8GJ	16e' 16cc'
.	.	.	16d'JJ 16b'
=179	=179	=179	=179
4D	4V	4C	4e [4cc
4D	4I	4r	16ccLL]
.	.	.	(16b
.	.	.	16cc
.	.	.	16cc#JJ)
*	*	*clefG2	*
=180	=180	=180	=180
2D	2V/ii	16r	(8ddL
.	.	(16f#LL	.
.	.	16g	8ccJ
.	.	16aJJ)	.
.	.	16r	8b-L
.	.	(16dLL	.
.	.	16e	8aJ)
.	.	16f#JJ)	.
=181	=181	=181	=181
4P	4ii	(8gL	16r
.	.	.	(16b-LL
.	.	8fJ	16cc
.	.	.	16ddJJ)
4P	4V7c/V	8eL	16r
.	.	.	(16gLL
.	.	8dJ)	16a
.	.	.	16b-JJ)
=182	=182	=182	=182
2D	2V	16r	(8ccL
.	.	(16eLL	.
.	.	16f	8b-J
.	.	16gJJ)	.
.	.	16r	8aL
.	.	(16cLL	.
.	.	16d	8gJ)
.	.	16eJJ)	.
=183	=183	=183	=183
4T	4I	(4f	16r
.	.	.	(16aLL
.	.	.	16b-
.	.	.	16bJJ
*-	*-	*-	*-
!!!COM: Beethoven
!!!OTL: 7 Variations on a Quartet by Winter
!!!Variation: Variation 3 e
**function	**harm	**kern	**kern
*	*	*clefF4	*clefG2
*	*	*k[b-]	*k[b-]
*M2/4	*M2/4	*M2/4	*M2/4
*F:	*F:	*F:	*F:
4T	4V	8cL	16ccLL
.	.	.	16cc#
.	.	8B-J)	16dd
.	.	.	16eeJJ)
=184	=184	=184	=184
2T	2I	8A'L	16r
.	.	.	16f'LL 16ff'
.	.	8c'J	16g' 16gg'
.	.	.	16a'JJ 16aa'
.	.	8A'L	16r
.	.	.	16a'LL 16aa'
.	.	8F'J	16b-' 16bb-'
.	.	.	16cc'JJ 16ccc'
=185	=185	=185	=185
4T	4V7	8E'L	16r
.	.	.	16cc'LL 16ccc'
.	.	8C'J	16a' 16aa'
.	.	.	16b-'JJ 16bb-'
4T	4vi	8F'L	16r
.	.	.	16b-'LL 16bb-'
.	.	8D'J	16g#' 16gg#'
.	.	.	16a'JJ 16aa'
=186	=186	=186	=186
8P	8IV	8BB-'L	16r
.	.	.	16dd'LL 16ddd'
8P	8V7b/V	8BB'J	16ee' 16eee'
.	.	.	16ff'JJ 16fff'
4D	4V	8C'L	16r
.	.	.	16ee' 16eee'
.	.	8CC'J	16r
.	.	.	16e' 16ee'
=187	=187	=187	=187
2T	2I	16r	4f 4ff
.	.	16FF'LL	.
.	.	16FF#'	.
.	.	16GG'JJ	.
.	.	16AA-'LL	4r
.	.	16AA'	.
.	.	16BB-'	.
.	.	16BB'JJ	.
*-	*-	*-	*-
!!!COM: Beethoven
!!!OTL: 7 Variations on a Quartet by Winter
!!!Variation: Variation 3 f
**function	**harm	**kern	**kern
*	*	*clefF4	*clefG2
*	*	*k[b-]	*k[b-]
*M2/4	*M2/4	*M2/4	*M2/4
*F:	*F:	*F:	*F:
=188	=188	=188	=188
2T	2V7	16r	8g' 8b-' 8cc'
.	.	16C'LL	.
.	.	16E'	8r
.	.	16D'JJ	.
.	.	16r	8g' 8b-' 8cc'
.	.	16C'LL	.
.	.	16D'	8r
.	.	16E'JJ	.
=189	=189	=189	=189
2T	2I	16r	8f' 8a' 8cc'
.	.	16F'LL	.
.	.	16A'	8r
.	.	16G'JJ	.
.	.	16r	8f' 8a' 8cc'
.	.	16F'LL	.
.	.	16E'	8r
.	.	16D'JJ	.
=190	=190	=190	=190
4T	4V	16r	8g' 8cc' 8ee'
.	.	16C'LL	.
.	.	16BB'	8r
.	.	16C'JJ	.
4T	4V7d	16r	8g' 8cc' 8ee'
.	.	16C'LL	.
.	.	16D'	8r
.	.	16BB-'JJ	.
=191	=191	=191	=191
2T	2Ib	16r	8a' 8cc' 8ff'
.	.	16AA'LL	.
.	.	16C'	8r
.	.	16BB-'JJ	.
.	.	16r	8a' 8cc' 8ff'
.	.	16AA'LL	.
.	.	16GG'	8r
.	.	16FF'JJ	.
=192	=192	=192	=192
2T	2V7	16r	8b-' 8cc' 8gg'
.	.	16C'LL	.
.	.	16E'	8r
.	.	16D'JJ	.
.	.	16r	8g' 8b-' 8cc'
.	.	16C'LL	.
.	.	16D'	8r
.	.	16E'JJ	.
=193	=193	=193	=193
4T	4I	16r	8f' 8a' 8cc'
.	.	16F'LL	.
.	.	16G'	8r
.	.	16A'JJ	.
4T	4vi	16r	8f' 8a' 8ff'
.	.	16D'LL	.
.	.	16E'	8r
.	.	16F'JJ	.
=194	=194	=194	=194
4P	4ii7	16r	8g' 8dd' 8ff'
.	.	16BB-'LL	.
.	.	16AA'	8r
.	.	16GG'JJ	.
4D	4V7	16r	8g' 8b-' 8ee'
.	.	16C'LL	.
.	.	16BB'	8r
.	.	16C'JJ	.
=195	=195	=195	=195
4T	4I	16r	8a' 8ff'
.	.	16FF'LL	.
.	.	16EE'	8r
.	.	16FF'JJ	.
4T	4V	16r	8bb-' 8eee'
.	.	16CC'LL	.
.	.	16BBB'	8r
.	.	16CC'JJ	.
=196	=196	=196	=196
4T	4I	8r	8aa' 8fff'
.	.	8FFF	8r
*-	*-	*-	*-
!!!COM: Beethoven
!!!OTL: 7 Variations on a Quartet by Winter
!!!Variation: Variation 4 a
**function	**harm	**kern	**kern
*	*	*clefG2	*clefG2
*	*	*k[b-]	*k[b-]
*M2/4	*M2/4	*M2/4	*M2/4
*F:	*F:	*F:	*F:
4T	4I	4r	([4ccc
=197	=197	=197	=197
2T	2I	(8fL 8a	24cccLL]
.	.	.	24aa
.	.	.	24bb-J
.	.	8cJ	24cccL
.	.	.	24ddd
.	.	.	24eeeJJ
.	.	8fL 8a	24fffLL
.	.	.	24eee
.	.	.	24dddJ
.	.	8cJ	24cccL
.	.	.	24bb-
.	.	.	24aaJJ)
=198	=198	=198	=198
4T	4V7b	8eL 8g	(24bb-LL
.	.	.	24aa
.	.	.	24bb-J
.	.	8cJ	8ccc'J)
4T	4I	8fL 8a	(24aaLL
.	.	.	24gg#
.	.	.	24aaJ
.	.	8cJ)	8ccc'J)
=199	=199	=199	=199
4T	4ii	(8gL 8b-	(24ggLL
.	.	.	24aa
.	.	.	24ggJ
.	.	8aJ 8cc	24ffL
.	.	.	24gg
.	.	.	24ffJJ
4T	4viioD7c	8b-L 8dd-	24eeLL
.	.	.	24ff
.	.	.	24eeJ
.	.	8aJ 8cc	24ffL
.	.	.	24gg
.	.	.	24ffJJ)
=200	=200	=200	=200
4T	4ii	8gL 8b-	(4gg
.	.	8fJ 8a	.
4T	4V	8eL 8g	[4ccc
.	.	8cJ) 8e	.
=201	=201	=201	=201
2T	2I	(8fL 8a	24cccLL]
.	.	.	24aa
.	.	.	24bb-J
.	.	8cJ	24cccL
.	.	.	24ddd
.	.	.	24eeeJJ
.	.	8fL 8a	24fffLL
.	.	.	24eee
.	.	.	24dddJ
.	.	8cJ	24cccL
.	.	.	24bb-
.	.	.	24aaJJ)
=202	=202	=202	=202
4T	4V7b	8eL 8g	(24bb-LL
.	.	.	24aa
.	.	.	24bb-J
.	.	8cJ	8ccc'J)
4T	4I	8fL 8a	(24aaLL
.	.	.	24gg#
.	.	.	24aaJ
.	.	8cJ)	8ccc'J)
=203	=203	=203	=203
4P	4ii	8g 8b-	(8ggL
.	.	4a 4cc	16bb-Jk)
.	.	.	16r
4D	4viiob	.	8dd'L
.	.	8g 8b-	8ee'J
=204	=204	=204	=204
4T	4I	8f'L 8a'	(4ff
*	*	*clefF4	*
.	.	8c'J	.
*-	*-	*-	*-
!!!COM: Beethoven
!!!OTL: 7 Variations on a Quartet by Winter
!!!Variation: Variation 4 b
**function	**harm	**kern	**kern
*	*	*clefF4	*clefG2
*	*	*k[b-]	*k[b-]
*M2/4	*M2/4	*M2/4	*M2/4
*F:	*F:	*F:	*F:
4T	4I	8F'	[4cc
.	.	8r	.
=205	=205	=205	=205
2T	2I	(8FL 8A	24ccLL]
.	.	.	24a
.	.	.	24b-J
.	.	8CJ	24ccL
.	.	.	24dd
.	.	.	24eeJJ
.	.	8FL 8A	24ffLL
.	.	.	24ee
.	.	.	24ddJ
.	.	8CJ	24ccL
.	.	.	24b-
.	.	.	24aJJ)
=206	=206	=206	=206
4T	4V7b	8EL 8G	(24b-LL
.	.	.	24a
.	.	.	24b-J
.	.	8CJ	24ccL
.	.	.	24b
.	.	.	24ccJJ
4T	4I	8FL 8A	24aLL
.	.	.	24g#
.	.	.	24aJ
.	.	8CJ)	24ccL
.	.	.	24b
.	.	.	24ccJJ)
=207	=207	=207	=207
8T	8V7c	(8GL 8B-	(24gLL
.	.	.	24b
.	.	.	24ccJ
8T	8Ib	8AJ 8c	24fL
.	.	.	24b
.	.	.	24ccJJ
8T	8V7d	8B-L 8d-	24eLL
.	.	.	24b
.	.	.	24ccJ
8T	8Ib	8AJ 8c	24fL
.	.	.	24b
.	.	.	24ccJJ)
=208	=208	=208	=208
4T	4ii	8GL 8B-	(4g
.	.	8FJ 8A	.
4T	4V	8EL 8G	[4cc
.	.	8CJ) 8E	.
=209	=209	=209	=209
2T	2I	(8FL 8A	24ccLL]
.	.	.	24a
.	.	.	24b-J
.	.	8CJ	24ccL
.	.	.	24dd
.	.	.	24eeJJ
.	.	8FL 8A	24ffLL
.	.	.	24ee
.	.	.	24ddJ
.	.	8CJ	24ccL
.	.	.	24b-
.	.	.	24aJJ)
=210	=210	=210	=210
4T	4V7b	8EL 8G	(24b-LL
.	.	.	24a
.	.	.	24b-J
.	.	8CJ	24ggL
.	.	.	24ff#
.	.	.	24ggJJ
4T	4I	8FL 8A	24aLL
.	.	.	24g#
.	.	.	24aJ
.	.	8CJ)	24ffL
.	.	.	24ee
.	.	.	24ffJJ)
=211	=211	=211	=211
8P	8ii	8GL 8c	(24gLL
.	.	.	24f#
.	.	.	24gJ
8P	8V	8CJ	24eeL
.	.	.	24dd#
.	.	.	24eeJJ
4P	4vii7d/V	8A-L 8B	24fLL
.	.	.	24e
.	.	.	24fJ
.	.	8CJ	24ddL
.	.	.	24cc#
.	.	.	24ddJJ)
=212	=212	=212	=212
4D	4Cc/V	8GL 8c	24eLL
.	.	.	24d#
.	.	.	24eJ
.	.	8CJ	24ccL
.	.	.	24b
.	.	.	24ccJJ
4D	4V7/V	8GL 8c	24fLL
.	.	.	24cc#
.	.	.	24ddJ
.	.	8CJ	24gL
.	.	.	24dd#
.	.	.	24eeJJ
=213	=213	=213	=213
4D	4Vb	8EL 8G 8c	24ccLL
.	.	.	24b
.	.	.	24ccJ
.	.	8CJ	24ggL
.	.	.	24ff#
.	.	.	24ggJJ
4D	4V7b/V	8DL 8F 8B	24bLL
.	.	.	24a#
.	.	.	24bJ
.	.	8CJ	24ggL
.	.	.	24ff#
.	.	.	24ggJJ
=214	=214	=214	=214
4D	4Vb	8EL 8G 8c	24eLL
.	.	.	24d#
.	.	.	24eJ
.	.	8CJ	24ccL
.	.	.	24b
.	.	.	24ccJJ
4D	4V7b/V	8GL 8c	24fLL
.	.	.	24cc#
.	.	.	24ddJ
.	.	8CJ	24gL
.	.	.	24dd#
.	.	.	24eeJJ
=215	=215	=215	=215
4D	4Vb	8EL 8G 8c	24ccLL
.	.	.	24b
.	.	.	24ccJ
.	.	8CJ	24ggL
.	.	.	24ff#
.	.	.	24ggJJ
4D	4V7b/V	8DL 8F 8B	24bLL
.	.	.	24a#
.	.	.	24bJ
.	.	8CJ	24ggL
.	.	.	24ff#
.	.	.	24ggJJ
=216	=216	=216	=216
4D	4V	4C; 4E; 4G; 4c;	4cc;
*-	*-	*-	*-
!!!COM: Beethoven
!!!OTL: 7 Variations on a Quartet by Winter
!!!Variation: Variation 4 c
**function	**harm	**kern	**kern
*	*	*clefF4	*clefG2
*	*	*k[b-]	*k[b-]
*M2/4	*M2/4	*M2/4	*M2/4
*F:	*F:	*F:	*F:
.	.	.	q16bn
.	.	.	q16dd
.	.	.	q16cc
4T	4I	4r	[4cc
=217	=217	=217	=217
2T	2I	8cL 8f	24ccLL]
.	.	.	24a
.	.	.	24ccJ
.	.	8FJ	24ffL
.	.	.	24cc
.	.	.	24ffJJ
.	.	8cL 8f	24aaLL
.	.	.	24ff
.	.	.	24ccJ
.	.	8FJ	24ffL
.	.	.	24cc
.	.	.	24aJJ
=218	=218	=218	=218
4T	4viioD7d	8d-L 8e	24b-LL
.	.	.	24a
.	.	.	24b-J
.	.	8FJ	24bb-L
.	.	.	24aa
.	.	.	24bb-JJ
4T	4I	8cL 8f	24aLL
.	.	.	24g#
.	.	.	24aJ
.	.	8FJ	24aaL
.	.	.	24gg#
.	.	.	24aaJJ
=219	=219	=219	=219
*	*	*^	*
8T	8viioD7c	4.F	(8B-L 8d-	24gLL
.	.	.	.	24ff#
.	.	.	.	24ggJ
8T	8Ib	.	8AJ 8c	24fL
.	.	.	.	24ee
.	.	.	.	24ffJJ
8T	8viiob	.	8GL 8B-	24eLL
.	.	.	.	24dd#
.	.	.	.	24eeJ
8T	8I	8F	8AJ	24fL
.	.	.	.	24ee
.	.	.	.	24ffJJ
=220	=220	=220	=220	=220
2T	2V	8EL	8GL	24gLL
.	.	.	.	24gg
.	.	.	.	24ffJ
.	.	8CJ	8EJ)	24eeL
.	.	.	.	24dd
.	.	.	.	24ccJJ
.	.	4r	4r	24bLL
.	.	.	.	24dd
.	.	.	.	24ccJ
.	.	.	.	24bL
.	.	.	.	24dd
.	.	.	.	24ccJJ
=221	=221	=221	=221	=221
2T	2I	8AL 8c	2f	24ccLL
.	.	.	.	24a
.	.	.	.	24ccJ
.	.	8FJ	.	24ffL
.	.	.	.	24cc
.	.	.	.	24ffJJ
.	.	8AL 8c 8f	.	24aaLL
.	.	.	.	24ff
.	.	.	.	24ccJ
.	.	8FJ	.	24ffL
.	.	.	.	24cc
.	.	.	.	24aJJ
*	*	*v	*v	*
=222	=222	=222	=222
4P	4viioD7c/ii	8GL 8B- 8c# 8e	24b-LL
.	.	.	24a
.	.	.	24b-J
.	.	8FJ	24bb-L
.	.	.	24aa
.	.	.	24bb-JJ
4P	4iib	8AL 8d 8f	24aLL
.	.	.	24g#
.	.	.	24aJ
.	.	8FJ	24aaL
.	.	.	24gg#
.	.	.	24aaJJ
=223	=223	=223	=223
4P	4iib	8AL 8d 8f	24aLL
.	.	.	24g#
.	.	.	24aJ
.	.	8FJ	24aaL
.	.	.	24gg#
.	.	.	24aaJJ
4P	4V7/V	8dL 8f	24bLL
.	.	.	24a#
.	.	.	24bJ
.	.	8GJ	24bbL
.	.	.	24aa#
.	.	.	24bbJJ
=224	=224	=224	=224
2D	2V	(8cL	24ccLL
.	.	.	24b
.	.	.	24ccJ
.	.	8gJ	24eeL
.	.	.	24dd#
.	.	.	24eeJJ
.	.	8eL	24ggLL
.	.	.	24ff#
.	.	.	24ggJ
.	.	8cJ)	24cccL
.	.	.	24bb
.	.	.	24cccJJ
*-	*-	*-	*-
!!!COM: Beethoven
!!!OTL: 7 Variations on a Quartet by Winter
!!!Variation: Variation 4 d
**function	**harm	**kern	**kern
*	*	*clefF4	*clefG2
*	*	*k[b-]	*k[b-]
*M2/4	*M2/4	*M2/4	*M2/4
*F:	*F:	*F:	*F:
=225	=225	=225	=225
4D	4Cc/V	8GL	24eeeLL
.	.	.	24ccc
.	.	.	24ggJ
.	.	8cJ 8e	24cccL
.	.	.	24gg
.	.	.	24eeJJ
4D	4V7/V	8GL	24ggLL
.	.	.	24ff
.	.	.	24ddJ
.	.	8dJ 8f	24ffL
.	.	.	24dd
.	.	.	24bJJ
=226	=226	=226	=226
2D	2V	(8CL	24ccLL
.	.	.	24b
.	.	.	24ccJ
.	.	8GJ	24eeL
.	.	.	24dd#
.	.	.	24eeJJ
.	.	8EL	24ggLL
.	.	.	24ff#
.	.	.	24ggJ
.	.	8CJ)	24cccL
.	.	.	24bb
.	.	.	24cccJJ
=227	=227	=227	=227
4D	4Cc/V	8GGL	24eeeLL
.	.	.	24ccc
.	.	.	24ggJ
.	.	8CJ 8E	24cccL
.	.	.	24gg
.	.	.	24eeJJ
4D	4V7/V	8GGL	24ggLL
.	.	.	24ff
.	.	.	24ddJ
.	.	8DJ 8F	24ffL
.	.	.	24dd
.	.	.	24bJJ
=228	=228	=228	=228
2D	2V	8C 8E	(24ccLL
.	.	.	24dd
.	.	.	24ccJ
.	.	8r	24bL
.	.	.	24cc
.	.	.	24cc#JJ
.	.	4r	16ddLL
.	.	.	16ee-
.	.	.	16ee
.	.	.	16ffJJ)
*-	*-	*-	*-
!!!COM: Beethoven
!!!OTL: 7 Variations on a Quartet by Winter
!!!Variation: Variation 4 e
**function	**harm	**kern	**kern
*	*	*clefF4	*clefG2
*	*	*k[b-]	*k[b-]
*M2/4	*M2/4	*M2/4	*M2/4
*F:	*F:	*F:	*F:
=229	=229	=229	=229
2P	2ctoD7	(8cL 8e-	(24ff#LL
.	.	.	24gg
.	.	.	24ff#J
.	.	8CJ	24eeL
.	.	.	24ff#
.	.	.	24ggJJ
.	.	8F#L 8A	24aaLL
.	.	.	24bb-
.	.	.	24cccJ
.	.	8CJ)	24ccc#L
.	.	.	24ddd
.	.	.	24ccc#JJ)
=230	=230	=230	=230
2D	2V7	(8GL 8B-	(26eee-LL
.	.	.	26ddd
.	.	.	26ccc
.	.	.	26bb-
.	.	8CJ	.
.	.	.	26aa
.	.	.	26ccc
.	.	.	26bb-
.	.	8B-L 8d	.
.	.	.	26aa
.	.	.	26gg
.	.	.	26bb-
.	.	8CJ)	.
.	.	.	26aa
.	.	.	26gg
.	.	.	26ffJJ)
=231	=231	=231	=231
2T	2V7m9	(8B-L 8d-	(24eeLL
.	.	.	24ff
.	.	.	24eeJ
.	.	8CJ	24ddL
.	.	.	24ee
.	.	.	24ffJJ
.	.	8GL 8B-	24ggLL
.	.	.	24aa
.	.	.	24bb-J
.	.	8CJ)	24bbL
.	.	.	24ccc
.	.	.	24bb-JJ)
=232	=232	=232	=232
2T	2I	(8FL 8A	(24dddLL
.	.	.	24ccc
.	.	.	24bb-J
.	.	8CJ	24aaL
.	.	.	24ccc
.	.	.	24bb-JJ
.	.	8AL 8c	32aaLLL
.	.	.	32gg
.	.	.	32ff
.	.	.	32eeJJ
.	.	8CJ)	48ggLL
.	.	.	48ff
.	.	.	48eeJJ
.	.	.	48ddLL
.	.	.	48cc
.	.	.	48b-JJJ)
=233	=233	=233	=233
2T	2I	(8AL 8c	(24aLL
.	.	.	24b-
.	.	.	24aJ
.	.	8CJ	24gL
.	.	.	24a
.	.	.	24b-JJ
.	.	8FL 8A	32ccLLL
.	.	.	32dd
.	.	.	32ee
.	.	.	32ffJJ
.	.	8CJ)	32ggLL
.	.	.	32aa
.	.	.	32bb-
.	.	.	32aaJJJ)
=234	=234	=234	=234
4P	4viioD7/vi	(8GL 8B-	(26cccLL
.	.	.	26bb-
.	.	.	26aa
.	.	.	26gg
.	.	8C#J	.
.	.	.	26ff
.	.	.	26ee
.	.	.	26gg
4P	4vi	8FL 8A	.
.	.	.	26ff
.	.	.	26ee
.	.	.	26dd
.	.	8DJ)	.
.	.	.	26cc
.	.	.	26b-
.	.	.	26aJJ)
=235	=235	=235	=235
4P	4ii7b	(8FL 8G	(32ddLLL
.	.	.	32cc
.	.	.	32b-
.	.	.	32aJJ
.	.	8BB-J)	32gLL
.	.	.	32f
.	.	.	32e
.	.	.	32dJJJ)
8D	8Cc	8C'L 8F' 8A'	(24cLL
.	.	.	24d
.	.	.	24cJ)
8D	8V7	8C'J 8E'	(24B-L
.	.	.	24A
.	.	.	24GJJ)
=236	=236	=236	=236
2T	2I	8FF	24FLL
.	.	.	24G
.	.	.	24AJ
.	.	8r	24B-L
.	.	.	24c
.	.	.	24dJJ
.	.	4r	24eLL
.	.	.	24f
.	.	.	24gJ
.	.	.	24aL
.	.	.	24b-
.	.	.	24bJJ
*-	*-	*-	*-
!!!COM: Beethoven
!!!OTL: 7 Variations on a Quartet by Winter
!!!Variation: Variation 4 f
**function	**harm	**kern	**kern
*	*	*clefF4	*clefG2
*	*	*k[b-]	*k[b-]
*M2/4	*M2/4	*M2/4	*M2/4
*F:	*F:	*F:	*F:
=237	=237	=237	=237
2T	2V7	24CCLL	4.cc
.	.	24EE	.
.	.	24GGJ	.
.	.	24CL	.
.	.	24E	.
.	.	24GJJ	.
.	.	4c	.
.	.	.	8b-' 8ee'
=238	=238	=238	=238
2T	2Ic	24CCLL	4.a 4.ff
.	.	24FF	.
.	.	24AAJ	.
.	.	24CL	.
.	.	24F	.
.	.	24AJJ	.
.	.	4c	.
.	.	.	8ff' 8aa'
=239	=239	=239	=239
2T	2V7	24CCLL	4.ee 4.bb-
.	.	24EE	.
.	.	24GGJ	.
.	.	24CL	.
.	.	24E	.
.	.	24GJJ	.
.	.	4c	.
.	.	.	8bb-' 8eee'
=240	=240	=240	=240
2T	2Ic	24CCLL	4.aa 4.fff
.	.	24FF	.
.	.	24AAJ	.
.	.	24CL	.
.	.	24F	.
.	.	24AJJ	.
.	.	4c	.
.	.	.	8aa' 8ccc'
=241	=241	=241	=241
4.T	4.V7	24CCLL	4.gg 4.bb-
.	.	24EE	.
.	.	24GGJ	.
.	.	24CL	.
.	.	24E	.
.	.	24GJJ	.
.	.	8c'L	.
8T	8viioD7/vi	8c#'J	8b-' 8ee'
=242	=242	=242	=242
2T	2vi	8d	24ffLL
.	.	.	24gg
.	.	.	24ffJ
.	.	8r	24eeL
.	.	.	24ff
.	.	.	24ggJJ
.	.	4r	24gg#LL
.	.	.	24aa
.	.	.	24bb-J
.	.	.	24bbL
.	.	.	24ccc
.	.	.	24ccc#JJ
=243	=243	=243	=243
4P	4iib	8BB- 8D 8G	24dddLL
.	.	.	24ccc
.	.	.	24bb-J
.	.	8r	24aaL
.	.	.	24gg
.	.	.	24ffJJ
4D	4V7	8C 8G 8B-	24eeLL
.	.	.	24dd
.	.	.	24ccJ
.	.	8r	24b-L
.	.	.	24a
.	.	.	24gJJ
=244	=244	=244	=244
4T	4I	8F 8A	24fLL
.	.	.	24c
.	.	.	24B-J
.	.	8r	24AL
.	.	.	24G
.	.	.	24FJJ
4T	4V	8CC	24ELL
.	.	.	24D
.	.	.	24CJ
.	.	8r	24BB-L
.	.	.	24AA
.	.	.	24GGJJ
=245	=245	=245	=245
4T	4I	8FFF	8FF
.	.	8r	8r
*-	*-	*-	*-
!!!COM: Beethoven
!!!OTL: 7 Variations on a Quartet by Winter
!!!Variation: Variation 5 a
**function	**harm	**kern	**kern
*	*	*clefG2	*clefG2
*	*	*k[b-]	*k[b-]
*M2/4	*M2/4	*M2/4	*M2/4
*F:	*F:	*F:	*F:
4T	4I	(8cL	4r
.	.	16fJk)	.
.	.	16r	.
=246	=246	=246	=246
2T	2I	(8fL	2r
.	.	16aJk)	.
.	.	16r	.
.	.	(8aL	.
.	.	16ccJk)	.
.	.	16r	.
=247	=247	=247	=247
4T	4V7d	(4b-	16r
.	.	.	16ccLL
.	.	.	16dd
.	.	.	16eeJJ
4T	4Ib	4a)	16ffLL
.	.	.	16ee
.	.	.	16dd
.	.	.	16ccJJ
=248	=248	=248	=248
8T	8V7c	8gL	16b-LL
.	.	.	16cc
8T	8I	8fJ	16dd-
.	.	.	16ccJJ
8T	8V7b	8eL	16b-LL
.	.	.	16cc
8T	8I	8fJ	16b-
.	.	.	16ccJJ
=249	=249	=249	=249
4T	4ii	4g	16b-LL
.	.	.	16cc
.	.	.	16b-
.	.	.	16ccJJ
4T	4V	16r	(8ccL
.	.	16ccLL	.
.	.	16b	16ffJk)
.	.	16ccJJ	16r
=250	=250	=250	=250
2T	2Ib	16aLL	(8ffL
.	.	16cc	.
.	.	16b	16aaJk)
.	.	16ccJJ	16r
.	.	16b-LL	(8aaL
.	.	16a	.
.	.	16g	16cccJk)
.	.	16fJJ	16r
=251	=251	=251	=251
4T	4V7b	16eLL	(4bb-
.	.	16c	.
.	.	16d	.
.	.	16eJJ	.
4T	4I	16fLL	4aa)
.	.	16g	.
.	.	16a	.
.	.	16fJJ	.
=252	=252	=252	=252
4P	4iib	16b-LL	8ggL
.	.	16g	.
.	.	16d	8ggJ
.	.	16B-JJ	.
.	.	.	q8ff
4D	4V7	16cLL	(8eeL
.	.	16e	.
.	.	16g	16ddL
.	.	16b-JJ	16eeJJ)
=253	=253	=253	=253
4T	4I	8aL	4ff
.	.	8fJ	.
*-	*-	*-	*-
!!!COM: Beethoven
!!!OTL: 7 Variations on a Quartet by Winter
!!!Variation: Variation 5 b
**function	**harm	**kern	**kern
*	*	*clefF4	*clefG2
*	*	*k[b-]	*k[b-]
*M2/4	*M2/4	*M2/4	*M2/4
*F:	*F:	*F:	*F:
4T	4I	(8CL	(8.ffL 8.aa
.	.	16FJk)	.
.	.	16r	16eeJk) 16gg
=254	=254	=254	=254
2T	2I	(8FL	(8.ddL 8.ff
.	.	16AJk)	.
.	.	16r	16ccJk) 16ee
.	.	(8AL	16b-'LL 16dd'
.	.	.	16a' 16cc'
.	.	16cJk)	16g' 16b-'
.	.	16r	16f'JJ 16a'
=255	=255	=255	=255
4T	4V7d	(4B-	16r
.	.	.	16e'LK 16g'
.	.	.	8ccJ
4T	4Ib	4A)	16r
.	.	.	16f'LK 16a'
.	.	.	8ccJ
=256	=256	=256	=256
*	*	*	*^
8T	8V7c	8GL	8r	(16b-LL
.	.	.	.	16cc
8T	8I	8FJ	8b-	16dd-
.	.	.	.	16ccJJ)
8T	8viioD7	8EL	8b-L	(16dd-LL
.	.	.	.	16cc
8T	8I	8FJ	8b-J	16dd-
.	.	.	.	16ccJJ)
=257	=257	=257	=257	=257
4T	4V7	8GL	8b-	8cc
*	*	*	*v	*v
.	.	8CJ	8r
4T	4I	(8CCL	(8.aaL 8.ccc 8.fff
.	.	16FFJk)	.
.	.	16r	16ggJk) 16bb- 16eee
=258	=258	=258	=258
2T	2I	(8FFL	(8.ffL 8.aa 8.ddd
.	.	16AAJk)	.
.	.	16r	16eeJk) 16gg 16ccc
.	.	(8AAL	16dd'LL 16ff' 16bb-'
.	.	.	16cc' 16ee' 16aa'
.	.	16CJk)	16b-' 16dd' 16gg'
.	.	16r	16a'JJ 16cc' 16ff'
=259	=259	=259	=259
4T	4V7d	(4BB-	16r
.	.	.	16g'LK 16cc' 16ee'
.	.	.	8eeJ 8gg 8ccc
4T	4Ib	4AA)	16r
.	.	.	16a'LK 16cc' 16ff'
.	.	.	8ffJ 8aa 8ccc
=260	=260	=260	=260
4D	4Cc/V	8GG'L	16r
.	.	.	16cc 16ee 16gg
.	.	8GG'J	16r
.	.	.	16cc 16ee 16gg
4D	4V7b/V	8AA'L	16r
.	.	.	16dd 16ff 16gg
.	.	8BB'J	16r
.	.	.	16dd 16ff 16gg
=261	=261	=261	=261
2D	2V	(4C	(16ccLL 16gg
.	.	.	16ee 16ff#
.	.	.	16cc 16gg
.	.	.	16eeJJ 16ff#
.	.	8DL	16ccLL 16gg
.	.	.	16ee 16ff#
.	.	8EJ)	16cc 16gg
.	.	.	16eeJJ) 16ff#
=262	=262	=262	=262
4D	4Cc/V	(8GGL 8C	(16ccLL 16aa
.	.	.	16ee) 16gg
.	.	16GJk)	16ee' 16gg'
.	.	16r	16ee'JJ 16gg'
4D	4V7/V	(8GGL 8BB	(16ddLL 16aa
.	.	.	16ff) 16gg
.	.	16GJk)	16ff' 16gg'
.	.	16r	16ff'JJ 16gg'
=263	=263	=263	=263
2D	2V	(4C	(16ccLL 16gg
.	.	.	16ee 16ff#
.	.	.	16cc 16gg
.	.	.	16eeJJ 16ff#
.	.	8DL	16ccLL 16gg
.	.	.	16ee 16ff#
.	.	8EJ)	16cc 16gg
.	.	.	16eeJJ) 16ff#
=264	=264	=264	=264
4D	4Cc/V	(8GGL 8C	(16ccLL 16aa
.	.	.	16ee) 16gg
.	.	16GJk)	16ee' 16gg'
.	.	16r	16ee'JJ 16gg'
4D	4V7/V	(8GGL 8BB	(16ddLL 16aa
.	.	.	16ff) 16gg
.	.	16GJk)	16ff' 16gg'
.	.	16r	16ff'JJ 16gg'
=265	=265	=265	=265
4D	4V	4C;	8ee; [8gg;
.	.	.	q32gg]
.	.	.	q32ee
.	.	.	q32ff
.	.	.	q32dd
.	.	.	8cc;
*-	*-	*-	*-
!!!COM: Beethoven
!!!OTL: 7 Variations on a Quartet by Winter
!!!Variation: Variation 5 c
**function	**harm	**kern	**kern
*	*	*clefF4	*clefG2
*	*	*k[b-]	*k[b-]
*M2/4	*M2/4	*M2/4	*M2/4
*F:	*F:	*F:	*F:
4T	4I	4r	(8ccL
.	.	.	16aJk)
.	.	.	16r
=266	=266	=266	=266
2T	2I	2r	(8aL
.	.	.	16fJk)
.	.	.	16r
.	.	.	q8f
.	.	.	(8ffL
.	.	.	16ccJk)
.	.	.	16r
=267	=267	=267	=267
4T	4V7	16r	(4b-
.	.	(16cLL	.
.	.	16d	.
.	.	16eJJ	.
4T	4I	16fLL	4a)
.	.	16e	.
.	.	16d	.
.	.	16cJJ)	.
=268	=268	=268	=268
8T	8V7d	8B-'L	16eLL 16g
.	.	.	16cc
8T	8Ib	8A'J	16f
.	.	.	16ccJJ
8T	8V7c	8G'L	16eLL 16b-
.	.	.	16cc
8T	8I	8F'J	16f 16a
.	.	.	16ccJJ
=269	=269	=269	=269
4T	4V	8C	(16eLL 16g
.	.	.	16cc
.	.	8r	16b
.	.	.	16b-JJ)
4T	4Ib	(8cL	(16aLL
.	.	.	16b-
.	.	16AJk)	16b
.	.	16r	16ccJJ
=270	=270	=270	=270
2T	2I	(8AL	16cc#LL
.	.	.	16dd
.	.	16FJk)	16ee-
.	.	16r	16eeJJ
.	.	q8F	.
.	.	(8fL	16ffLL
.	.	.	16gg
.	.	16cJk)	16aa
.	.	16r	16ffJJ)
=271	=271	=271	=271
4T	4V7d	(4B-	(16eeLL
.	.	.	16cc
.	.	.	16dd
.	.	.	16eeJJ
4T	4Ib	8AL	16ffLL
.	.	.	16ee
.	.	8A-J)	16dd
.	.	.	[16ccJJ
=272	=272	=272	=272
*	*	*^	*
2D	2V7/V	2G	4G	16ccLL])
.	.	.	.	16f
.	.	.	.	16b
.	.	.	.	16fJJ
.	.	.	8AL	16ccLL
.	.	.	.	16f
.	.	.	8BJ	16dd
.	.	.	.	16fJJ
*	*	*v	*v	*
=273	=273	=273	=273
4D	4V	8c'L	(4e 4cc
.	.	[8C	.
*-	*-	*-	*-
!!!COM: Beethoven
!!!OTL: 7 Variations on a Quartet by Winter
!!!Variation: Variation 5 d
**function	**harm	**kern	**kern
*	*	*clefG2	*clefG2
*	*	*k[b-]	*k[b-]
*M2/4	*M2/4	*M2/4	*M2/4
*F:	*F:	*F:	*F:
4D	4V	16C]	4ee 4gg
.	.	16C'L	.
.	.	16E'	.
.	.	16F#'JJ	.
=274	=274	=274	=274
4D	4Cc/V	8G'L	4cc 4ee
.	.	8.GG	.
4D	4V7/V	.	4f) 4dd
.	.	16GG'L	.
.	.	16AA'	.
.	.	16BB'JJ	.
=275	=275	=275	=275
2D	2V	8C'L	(4e 4cc
.	.	8.CC	.
.	.	.	4ee 4gg
.	.	16CC'L	.
.	.	16EE'	.
.	.	16FF#'JJ	.
=276	=276	=276	=276
4D	4Cc/V	8GG'L	4cc 4ee
.	.	8.GGG	.
4D	4V7/V	.	4f) 4dd
.	.	16GGG'L	.
.	.	16AAA'	.
.	.	16BBB'JJ	.
=277	=277	=277	=277
2D	2V	4CC	4e 4cc
.	.	(8cL	4r
.	.	16AJk)	.
.	.	16r	.
=278	=278	=278	=278
2D	2V/ii	(8F#L	4r
.	.	16DJk)	.
.	.	16r	.
*	*	*clefG2	*
.	.	(8f#L	(8aaL
.	.	16dJk)	16dddJk)
.	.	16r	16r
=279	=279	=279	=279
2P	2ii	(8gL	(8bb-L
.	.	16b-Jk)	16ggJk)
.	.	16r	16r
*	*	*clefF4	*
.	.	(8B-L	4r
.	.	16GJk)	.
.	.	16r	.
=280	=280	=280	=280
2D	2V	(8EL	4r
.	.	16CJk)	.
.	.	16r	.
*	*	*clefG2	*
.	.	(8eL	(8ggL
.	.	16cJk)	16cccJk)
.	.	16r	16r
=281	=281	=281	=281
4T	4I	(8fL	(8aaL
.	.	16aJk)	16ffJk)
.	.	16r	16r
*-	*-	*-	*-
!!!COM: Beethoven
!!!OTL: 7 Variations on a Quartet by Winter
!!!Variation: Variation 5 e
**function	**harm	**kern	**kern
*	*	*clefG2	*clefG2
*	*	*k[b-]	*k[b-]
*M2/4	*M2/4	*M2/4	*M2/4
*F:	*F:	*F:	*F:
4T	4I	4r	(8aL 8cc
.	.	.	16ccJk) 16ff
.	.	.	16r
=282	=282	=282	=282
2T	2I	16r	(8ccL 8ff
.	.	16ccLL	.
.	.	16b	16ffJk) 16aa
.	.	16ccJJ	16r
.	.	16b-LL	(8ffL 8aa
.	.	16a	.
.	.	16g	16aaJk) 16ccc
.	.	16fJJ	16r
=283	=283	=283	=283
4T	4viioD7/vi	16eLL	(8aaL 8ccc
.	.	16d	.
.	.	16e	16ggJk) 16bb-
.	.	16c#JJ	16r
4T	4vi	16dLL	(8ggL 8bb-
.	.	16e	.
.	.	16f	16ffJk) 16aa
.	.	16dJJ	16r
*	*	*clefF4	*
=284	=284	=284	=284
8P	8IV	16B-LL	8ff'L 8ddd'
.	.	16A	.
8P	8V7b/V	16B-	8ff'J 8ddd'
.	.	16BJJ	.
4D	4V7	16cLL	8aa'L 8ccc'
.	.	16B	.
.	.	16c	8b-'J 8ee'
.	.	16CJJ	.
=285	=285	=285	=285
4T	4I	16FLL	8a 8ff
.	.	16CJ	.
.	.	8FFJ	8r
*-	*-	*-	*-
!!!COM: Beethoven
!!!OTL: 7 Variations on a Quartet by Winter
!!!Variation: Variation 5 f
**function	**harm	**kern	**kern
*	*	*clefG2	*clefG2
*	*	*k[b-]	*k[b-]
*M2/4	*M2/4	*M2/4	*M2/4
*F:	*F:	*F:	*F:
.	.	.	q8bn
4T	4V	4r	8ccL
.	.	.	q8bn
.	.	.	8ccJ
=286	=286	=286	=286
2T	2V7	4r	(8ccL
.	.	.	16eeJk)
.	.	.	16r
.	.	(8B-L	4r
.	.	16CJk)	.
.	.	16r	.
=287	=287	=287	=287
2T	2Ic	4r	(8ccL
.	.	.	16ffJk)
.	.	.	16r
.	.	(8AL	4r
.	.	16CJk)	.
.	.	16r	.
=288	=288	=288	=288
2T	2V7	4r	(8ccL
.	.	.	16bb-Jk)
.	.	.	16r
.	.	(8EL	4r
.	.	16CJk)	.
.	.	16r	.
=289	=289	=289	=289
2T	2Ic	4r	(8ccL
.	.	.	16aaJk)
.	.	.	16r
.	.	(8FL	4r
.	.	16CJk)	.
.	.	16r	.
=290	=290	=290	=290
4T	4V7	8r	(16ccLL
.	.	.	16eeJJ)
.	.	(16B-LL	8r
.	.	16CJJ)	.
4T	4viioD7/vi	8r	(16dd#LL
.	.	.	16eeJJ)
.	.	(16B-LL	8r
.	.	16C#JJ)	.
=291	=291	=291	=291
4P	4vi	8r	(16eeLL
.	.	.	16ffJJ)
.	.	(16ALL	8r
.	.	16DJJ)	.
4P	4V7c/V	8r	(16ffLL 16gg
.	.	.	16fffJJ)
.	.	(16BLL	8r
.	.	16DJJ)	.
=292	=292	=292	=292
4D	4Cc	8r	(16ffLL 16aa
.	.	.	16fffJJ)
.	.	(16cLL	8r
.	.	16CJJ)	.
4D	4V7	8r	(16ggLL 16bb-
.	.	.	16eeeJJ)
.	.	(16ccLL	8r
.	.	16cJJ)	.
=293	=293	=293	=293
4T	4I	8r	(16ffLL 16aa
.	.	.	16fffJJ)
.	.	(16fLL	8r
.	.	16FJJ)	.
4T	4V7	8r	(16b-LL
.	.	.	16eeJJ)
.	.	(16cLL	8r
.	.	16CJJ)	.
=294	=294	=294	=294
4T	4I	8r	(16aLL
.	.	.	16ffJJ)
.	.	(16FLL	8r
.	.	16FFJJ)	.
*-	*-	*-	*-
!!!COM: Beethoven
!!!OTL: 7 Variations on a Quartet by Winter
!!!Variation: Variation 6 a
**function	**harm	**kern	**kern
*	*	*clefF4	*clefG2
*	*	*k[b-e-a-d-]	*k[b-e-a-d-]
*M2/4	*M2/4	*M2/4	*M2/4
*f:	*f:	*f:	*f:
4T	4i	4r	(4cc
=295	=295	=295	=295
*	*	*^	*
2T	2i	[2FF	8FFL	8a-L
.	.	.	8FJ	8fJ
.	.	.	8FL	8a-L
.	.	.	8FJ	8ccJ)
=296	=296	=296	=296	=296
4.T	4.V7b	2FF_	8FL	(4.e 4.b- 4.dd-
.	.	.	8FJ	.
.	.	.	8FL	.
8T	8i	.	8FJ	8f) 8a- 8cc
=297	=297	=297	=297	=297
8T	8V7c	2FF_	8FL	(8gL 8b- 8ee
8T	8ib	.	8FJ	8a-J 8cc 8ff
8T	8V7d	.	8FL	8b-L 8dd- 8gg
8T	8ib	.	8FJ	8a-J) 8cc 8ff
=298	=298	=298	=298	=298
*	*	*	*	*^
4T	4V7/V	2FF_	8FL	4.g 4.b-	4ff
.	.	.	8FJ	.	.
4T	4V	.	8FL	.	8eeL
*	*	*	*	*v	*v
.	.	.	8FJ	(8ccJ
=299	=299	=299	=299	=299
2T	2i	2FF]	8FL	8a-L
.	.	.	8FJ	8fJ
.	.	.	8FL	8a-L
.	.	.	8FJ	8ccJ)
=300	=300	=300	=300	=300
4T	4V7b	2FF	8FFL	4.e 4.b- 4.dd-
.	.	.	8FJ	.
4T	4i	.	8FL	.
.	.	.	8FJ	(8f [8a- [8cc
*	*	*v	*v	*
=301	=301	=301	=301
*	*	*	*^
4P	4iiob	8BB-L	4d-	8a-L] 8cc]
.	.	8BB-J	.	8gJ 8b-
*	*	*	*v	*v
8D	8Cc	8CL	8cL 8fL 8a-
8D	8V7	8CJ	8B-J) 8eJ 8g
=302	=302	=302	=302
4.T	4.i	8FFL	(4B- (4e 4g
.	.	8CJ	.
.	.	8FL	8A-) 8f)
*-	*-	*-	*-
!!!COM: Beethoven
!!!OTL: 7 Variations on a Quartet by Winter
!!!Variation: Variation 6 b
**function	**harm	**kern	**kern
*	*	*clefF4	*clefG2
*	*	*k[b-e-a-d-]	*k[b-e-a-d-]
*M2/4	*M2/4	*M2/4	*M2/4
*f:	*f:	*f:	*f:
8T	8i	(8cJ	8r
=303	=303	=303	=303
2T	2i	8A-L	2r
.	.	8FJ	.
.	.	8A-L	.
.	.	8cJ)	.
=304	=304	=304	=304
4T	4V7d	4.B- 4.d-	8r
.	.	.	(8eL 8ee
4T	4ib	.	8fJ) 8ff
.	.	8A- 8c	[8dd- [8ddd-
=305	=305	=305	=305
8T	8V7c	(8GL 8B-	8dd-L] 8ddd-]
8T	8i	8FJ 8A-	(8dd-'J 8ddd-'
8T	8V7b	8EL 8G	8dd-'L 8ddd-'
8T	8i	8FJ) 8A-	8dd-'J) 8ddd-'
=306	=306	=306	=306
4T	4iio	4G 4B-	(8dd-L 8ddd-
.	.	.	16bb-L
.	.	.	16ggJJ
4T	4V	8r	8ee)
.	.	(8c	8r
=307	=307	=307	=307
2T	2i	8A-L	2r
.	.	8FJ	.
.	.	8A-L	.
.	.	8cJ)	.
=308	=308	=308	=308
4T	4V7d	4.B- 4.d-	8r
.	.	.	(8eL 8ee
4T	4ib	.	8fJ) 8ff
.	.	8A- [8c	[8ff [8fff
=309	=309	=309	=309
*	*	*^	*
4D	4Cc/V	4G	8c]	8ff] 8fff]
.	.	.	4c	4ee- 4eee-
4D	4V/V	4G	.	.
.	.	.	8B	8dd 8ddd
*	*	*v	*v	*
=310	=310	=310	=310
2D	2V	(8CL	4cc 4ccc
.	.	8E-J	.
.	.	8A-L	4r
.	.	8F#J)	.
=311	=311	=311	=311
4D	4Cc/V	4.G	8r
.	.	.	(8cc 8ee-
4D	4V/V	.	8ee-L 8gg
.	.	8GG	8fJ) 8b
=312	=312	=312	=312
2D	2V	(8CL	4e- 4cc
.	.	8E-J	.
.	.	8A-L	4r
.	.	8F#J)	.
=313	=313	=313	=313
4D	4Cc/V	4.G	8r
.	.	.	(8cc 8ee-
.	.	.	q16ddn
.	.	.	q16ee-
4D	4V/V	.	8ee-L 8gg
.	.	8GG	8fJ) 8b
=314	=314	=314	=314
4.D	4.V	4.C;	4.e-; 4.cc;
*-	*-	*-	*-
!!!COM: Beethoven
!!!OTL: 7 Variations on a Quartet by Winter
!!!Variation: Variation 6 c
**function	**harm	**kern	**kern
*	*	*clefF4	*clefG2
*	*	*k[b-e-a-d-]	*k[b-e-a-d-]
*M2/4	*M2/4	*M2/4	*M2/4
*f:	*f:	*f:	*f:
8T	8V	8r	(8cc
=315	=315	=315	=315
*	*	*	*^
4T	4V	2r	4r	8dd-L
.	.	.	.	8ccJ
4T	4i	.	8r	8ffL
.	.	.	(8c	8ccJ)
=316	=316	=316	=316	=316
4T	4V7	[2FFF [2FF	8d-L	4b-
.	.	.	8cJ	.
4T	4i	.	8fL	4a-
.	.	.	8cJ)	.
*	*	*	*v	*v
=317	=317	=317	=317
8T	8iiob	4.FFF] 4.FF]	8B-L 8d- 8g
8T	8ib	.	8A-J 8c 8f
8T	8viiob	.	8GL 8B- 8e
8T	8i	8F	[8A-J [8c [8f
=318	=318	=318	=318
4T	4Cc	4.C	8A-L] 8c] 8f]
.	.	.	[8cJ 8f 8a-
4T	4V	.	8cL] 8e 8g
.	.	8r	(8cJ 8cc
=319	=319	=319	=319
4T	4V	4r	8d-L 8dd-
.	.	.	8cJ 8cc
4T	4I	8r	8fL 8ff
.	.	(8C	8cJ) 8cc
=320	=320	=320	=320
*	*	*^	*
4T	4V7	2FF	8D-L	4B- 4b-
.	.	.	8CJ	.
4T	4I	.	8FL	[4A- [4a-
.	.	.	8CJ)	.
=321	=321	=321	=321	=321
4D	4Cc/V	4GG	(8E-L	(8A-L] 8a-]
.	.	.	8CJ	8GJ 8g
4D	4V7/V	4GG	8FL	8AL 8a
.	.	.	8DJ)	8BJ) 8b
=322	=322	=322	=322	=322
2D	2V	4C	4E-	(8cL 8cc
.	.	.	.	8f#J 8ff#
*	*	*v	*v	*
.	.	4r	8gL 8gg
.	.	.	8e-J) 8ee-
*-	*-	*-	*-
!!!COM: Beethoven
!!!OTL: 7 Variations on a Quartet by Winter
!!!Variation: Variation 6 d
**function	**harm	**kern	**kern
*	*	*clefF4	*clefG2
*	*	*k[b-e-a-d-]	*k[b-e-a-d-]
*M2/4	*M2/4	*M2/4	*M2/4
*f:	*f:	*f:	*f:
=323	=323	=323	=323
4D	4Cc/V	8r	(4.c 4.e- 4.cc
.	.	(8F#	.
4D	4V/V	8GL	.
.	.	8GGJ)	8B) 8d 8b
=324	=324	=324	=324
2D	2V	4C	8c'L 8e-' 8cc'
.	.	.	(8f#J 8ff#
.	.	4r	8gL 8gg
.	.	.	8e-J) 8ee-
=325	=325	=325	=325
4D	4Cc/V	8r	(4.c 4.e- 4.cc
.	.	(8F#	.
4D	4V/V	8GL	.
.	.	8GGJ)	8B) 8d 8b
=326	=326	=326	=326
4D	4V	4C	4c 4e- 4cc
*	*	*^	*
4D	4viiob/-VI	4r	8g-L	8ee-L
.	.	.	8g-J	8ee-J
=327	=327	=327	=327	=327
*	*	*	*	*^
4.T	4.-VI	2F	(8fL	(8dd-L	8r
.	.	.	8e-J	8ccJ	(8ee-
.	.	.	8d-L	8b-L	8gg-L
8T	8I	.	8cJ)	8a-J)	8ffJ)
=328	=328	=328	=328	=328	=328
2P	2iv	4BB-	4B-	4f	(8ee-L
.	.	.	.	.	8dd-J)
*	*	*	*	*v	*v
.	.	4r	8d-L	8b-L
.	.	.	8d-J	8b-J
=329	=329	=329	=329	=329
*	*	*	*	*^
2D	2V7	2C	(8cL	(8a-L	8r
.	.	.	8B-J	8gJ	(8b-
.	.	.	8A-L	8fL	8dd-L
.	.	.	8GJ)	8eJ)	8ccJ)
=330	=330	=330	=330	=330	=330
*	*	*v	*v	*	*
4T	4i	4FF 4F	4c	(8b-L
.	.	.	.	8a-J)
*	*	*	*v	*v
*-	*-	*-	*-
!!!COM: Beethoven
!!!OTL: 7 Variations on a Quartet by Winter
!!!Variation: Variation 6 e
**function	**harm	**kern	**kern
*	*	*clefF4	*clefG2
*	*	*k[b-e-a-d-]	*k[b-e-a-d-]
*M2/4	*M2/4	*M2/4	*M2/4
*f:	*f:	*f:	*f:
4T	4i	(8CL	4r
.	.	8CJ	.
=331	=331	=331	=331
2T	2i	8AA-L	2r
.	.	8FFJ	.
.	.	8AA-L	.
.	.	8CJ)	.
=332	=332	=332	=332
2T	2-VI	4.D-	8r
.	.	.	8f 8a- 8ff
.	.	.	8fL 8a- 8ff
.	.	8C	8fJ 8a- 8ff
=333	=333	=333	=333
4P	4iiob	(4BB-	8a- 8cc 8aa-
.	.	.	4g 4b- 4gg
4D	4V	4C)	.
.	.	.	([8e [8g [8ee
=334	=334	=334	=334
4.T	4.i	(4FF	8eL] 8g] 8ee]
.	.	.	8fJ) 8a- 8ff
.	.	8F)	8r
*-	*-	*-	*-
!!!COM: Beethoven
!!!OTL: 7 Variations on a Quartet by Winter
!!!Variation: Variation 6 f
**function	**harm	**kern	**kern
*	*	*clefF4	*clefG2
*	*	*k[b-e-a-d-]	*k[b-e-a-d-]
*M2/4	*M2/4	*M2/4	*M2/4
*f:	*f:	*f:	*f:
8T	8i	8r	[8c [8cc
=335	=335	=335	=335
2T	2V7	4C' 4G' 4B-'	8c] 8cc]
.	.	.	(4d- 4dd-
.	.	4C' 4G' 4B-'	.
.	.	.	8c) 8cc
=336	=336	=336	=336
2T	2ic	4C' 4F' 4A-'	8r
.	.	.	(4e 4ee
.	.	4C' 4F' 4A-'	.
.	.	.	8f) 8ff
=337	=337	=337	=337
2T	2V7	4C' 4E' 4G'	8r
.	.	.	(4cc 4ccc
.	.	4C' 4E' 4G'	.
.	.	.	8b-) 8bb-
=338	=338	=338	=338
2T	2ic	4C' 4F' 4A-'	8r
.	.	.	(4a- 4aa-
.	.	4C' 4F' 4A-'	.
.	.	.	8f) 8ff
=339	=339	=339	=339
2T	2V7	4C 4G 4B-	8r
.	.	.	(4d- 4dd-
.	.	4C 4G 4B-	.
.	.	.	8c) 8cc
=340	=340	=340	=340
4T	4i	4F 4A-	8r
.	.	.	(4e 4ee
4T	4-VI	4D- 4F 4A-	.
.	.	.	8f) 8ff
=341	=341	=341	=341
4P	4iiom7b	4BB- 4F 4G	8r
.	.	.	8b- 8bb-
4D	4V7	4C 4G 4B-	8r
.	.	.	8e 8ee
=342	=342	=342	=342
4T	4i	8F 8A-	8r
.	.	8r	8f 8ff
4T	4V	8C	8r
.	.	8r	8c 8cc
=343	=343	=343	=343
4T	4i	8FF	8r
.	.	8r	8F 8f
*-	*-	*-	*-
!!!COM: Beethoven
!!!OTL: 7 Variations on a Quartet by Winter
!!!Variation: Variation 7 a
**function	**harm	**kern	**kern
*	*	*clefF4	*clefG2
*	*	*k[b-]	*k[b-]
*M3/4	*M3/4	*M3/4	*M3/4
*F:	*F:	*F:	*F:
4T	4V	4r	(16bbLL
.	.	.	16ccc)
.	.	.	(16bb
.	.	.	16cccJJ)
=344	=344	=344	=344
2.T	2.I	8F'L	[4aa
.	.	8f'J	.
.	.	8F'L	12aaL]
.	.	.	12ff'
.	.	8f'J	.
.	.	.	12gg'J
.	.	8F'L	12aa'L
.	.	.	12bb-'
.	.	8e-'J 8f'	.
.	.	.	12ccc'J
=345	=345	=345	=345
4T	4viiob/V	8F'L	8ccc
.	.	8d'J 8f'	4bb
4T	4V7	8F'L	.
.	.	8e'J 8g'	4bb-
4T	4I	8F'L	.
.	.	8c'J 8f'	[8aa
=346	=346	=346	=346
4T	4iib	8F'L	8aa]
.	.	8B-'J 8e'	4gg
4T	4Ib	8F'L	.
.	.	8A'J 8f'	8ff'
4T	4V7b/V	8D'L	8ee'L
.	.	8B'J 8f'	8ff'J
=347	=347	=347	=347
4T	4Cc	8C'L	(4aa
.	.	8c'J 8f'	.
4T	4V	8C'L	8gg)
.	.	8c'J 8e'	8r
4T	4V7d	8C'L	(16bbLL
.	.	.	16ccc)
.	.	8B-'J 8e'	(16bb
.	.	.	16cccJJ)
=348	=348	=348	=348
2.T	2.I	8F'L	[4aa
.	.	8c'J 8f'	.
.	.	8F'L	12aaL]
.	.	.	(12ff
.	.	8c'J 8f'	.
.	.	.	12ggJ
.	.	8F'L	12aaL
.	.	.	12bb-
.	.	8e-'J 8f'	.
.	.	.	12cccJ)
=349	=349	=349	=349
4T	4viiob/V	8F'L	8ccc
.	.	8d'J 8f'	4bb
4T	4V7	8F'L	.
.	.	8e'J 8g'	4bb-
4T	4I	8F'L	.
.	.	8c'J 8f'	[8aa
=350	=350	=350	=350
2P	2iib	8BB-'L	8aa]
.	.	8B-'J 8d'	4gg
.	.	8BB-'L	.
.	.	8B-'J 8d'	8bb-'
4D	4V7	8C'L	8dd'L
.	.	8G'J 8B-'	8ee'J
=351	=351	=351	=351
2T	2I	8F'L	(4gg
.	.	8B-'J 8e'	.
.	.	8F'L	8ff)
.	.	8A'J 8f'	8r
*-	*-	*-	*-
!!!COM: Beethoven
!!!OTL: 7 Variations on a Quartet by Winter
!!!Variation: Variation 7 b
**function	**harm	**kern	**kern
*	*	*clefF4	*clefG2
*	*	*k[b-]	*k[b-]
*M2/4	*M2/4	*M2/4	*M2/4
*F:	*F:	*F:	*F:
4T	4I	4r	(16bLL
.	.	.	16cc)
.	.	.	(16b
.	.	.	16ccJJ)
=352	=352	=352	=352
2.T	2.I	8FF'L	([4a
.	.	8F'J	.
.	.	8FF'L	16aLL]
.	.	.	16f
.	.	8F'J	16e
.	.	.	16fJJ
.	.	8FF'L	16gLL
.	.	.	16a
.	.	8E-'J 8F'	16b-
.	.	.	16ccJJ)
=353	=353	=353	=353
4T	4viiob/V	8FF'L	(16ccLL
.	.	.	16b
.	.	8D'J 8F'	16dd
.	.	.	16ccJJ)
4T	4V7b	8FF'L	(16ccLL
.	.	.	16b-
.	.	8E'J 8G'	16dd
.	.	.	16b-JJ)
4T	4I	8FF'L	(16b-LL
.	.	.	16a
.	.	8F'J 8A'	16cc
.	.	.	16aJJ)
=354	=354	=354	=354
4T	4ii7c	8D'L	(16aLL
.	.	.	16g
.	.	8F'J 8B-'	16b-
.	.	.	16gJJ)
2T	2viiob	8D'L	(16gLL
.	.	.	16f
.	.	8F'J 8B'	16a
.	.	.	16fJJ)
.	.	8D'L	(16eLL
.	.	.	16f
.	.	8F'J 8B'	16e
.	.	.	16fJJ)
=355	=355	=355	=355
4T	4Cc	8C'L	(4a
.	.	8F'J 8c'	.
4T	4V	8C'L	8g)
.	.	8E'J 8c'	8r
4T	4V7	8C'L	(16bLL
.	.	.	16cc)
.	.	8E'J 8B-'	(16b
.	.	.	16ccJJ)
=356	=356	=356	=356
2.T	2.I	8FF'L	([4a
.	.	8F'J 8A'	.
.	.	8FF'L	16aLL]
.	.	.	16f
.	.	8F'J 8A'	16e
.	.	.	16fJJ
.	.	8FF'L	16gLL
.	.	.	16a
.	.	8E-'J 8F'	16b-
.	.	.	16ccJJ)
=357	=357	=357	=357
4T	4viiob/V	8FF'L	(16ccLL
.	.	.	16b
.	.	8D'J 8F'	16dd
.	.	.	16ccJJ)
4T	4V7b	8FF'L	(16ccLL
.	.	.	16b-
.	.	8E'J 8G'	16dd
.	.	.	16b-JJ)
4T	4I	8FF'L	(16b-LL
.	.	.	16a
.	.	8F'J 8A'	16cc
.	.	.	16aJJ)
=358	=358	=358	=358
2D	2Cc/V	8G'L	(16aLL
.	.	.	16g
.	.	8c'J 8e'	16f#
.	.	.	16gJJ
.	.	8G'L	16aLL
.	.	.	16g
.	.	8c'J 8e'	16f#
.	.	.	16gJJ
4D	4V7/V	8G'L	16g#LL
.	.	.	16a
.	.	8d'J 8f'	16b-
.	.	.	16bJJ)
=359	=359	=359	=359
2.D	2.V	8C'L	(16ccLL
.	.	.	16b
.	.	8c'J 8e'	16dd
.	.	.	16ccJJ
.	.	8C'L	16eeLL
.	.	.	16dd
.	.	8G'J 8c'	16ff
.	.	.	16eeJJ
.	.	8C'L	16ggLL
.	.	.	16ff#
.	.	8E'J 8G'	16aa
.	.	.	16ggJJ
=360	=360	=360	=360
2D	2Cc/V	8GG'L	16ffLL
.	.	.	16ee
.	.	8E'J 8G'	16dd
.	.	.	16ccJJ
.	.	8GG'L	16bLL
.	.	.	16cc
.	.	8E'J 8G'	16dd
.	.	.	16ccJJ
4D	4V7/V	8GG'L	16bLL
.	.	.	16ff
.	.	8D'J 8F'	16dd
.	.	.	16bJJ)
=361	=361	=361	=361
2.D	2.V	8C'L	(16ccLL
.	.	.	16b
.	.	8c'J 8e'	16dd
.	.	.	16ccJJ
.	.	8C'L	16eeLL
.	.	.	16dd
.	.	8G'J 8c'	16ff
.	.	.	16eeJJ
.	.	8C'L	16ggLL
.	.	.	16ff#
.	.	8E'J 8G'	16aa
.	.	.	16ggJJ
=362	=362	=362	=362
2D	2Cc/V	8GG'L	16ffLL
.	.	.	16ee
.	.	8E'J 8G'	16dd
.	.	.	16ccJJ
.	.	8GG'L	16bLL
.	.	.	16cc
.	.	8E'J 8G'	16dd
.	.	.	16ccJJ
4D	4V/V	8GG'L	16bLL
.	.	.	16ff
.	.	8D'J 8F' 8B'	16dd
.	.	.	16bJJ)
=363	=363	=363	=363
2D	2V	2C; 2E; 2G; 2c;	2cc;
*-	*-	*-	*-
!!!COM: Beethoven
!!!OTL: 7 Variations on a Quartet by Winter
!!!Variation: Variation 7 c
**function	**harm	**kern	**kern
*	*	*clefF4	*clefG2
*	*	*k[b-]	*k[b-]
*M2/4	*M2/4	*M2/4	*M2/4
*F:	*F:	*F:	*F:
4T	4I	4r	(16ccLL
.	.	.	16ccc)
.	.	.	(16cc
.	.	.	16cccJJ)
=364	=364	=364	=364
2.T	2.I	16FLL	4.a 4.aa
.	.	16c	.
.	.	16B	.
.	.	16cJJ	.
.	.	16B-LL	.
.	.	16c	.
.	.	16A	8f' 8ff'
.	.	16cJJ	.
.	.	16GLL	8a'L 8aa'
.	.	16c	.
.	.	16F	8cc'J 8ccc'
.	.	16cJJ	.
=365	=365	=365	=365
4T	4Vb	16ELL	8cc 8ccc
.	.	16c	.
.	.	16G	4b 4bb
.	.	16cJJ	.
4T	4V7	16ELL	.
.	.	16c	.
.	.	16C	4b- 4bb-
.	.	16cJJ	.
4T	4I	16FLL	.
.	.	16c	.
.	.	16B	[8a [8aa
.	.	16cJJ	.
=366	=366	=366	=366
4.T	4.V7	16B-LL	8a] 8aa]
.	.	16c	.
.	.	16E	4g 4gg
.	.	16cJJ	.
.	.	16B-LL	.
.	.	16c	.
4.T	4.I	16A	8f' 8ff'
.	.	16cJJ	.
.	.	16GLL	8b-'L 8bb-'
.	.	16c	.
.	.	16F	8a'J 8aa'
.	.	16cJJ	.
=367	=367	=367	=367
2.T	2.V	16CLL	(8f#L 8ff#
.	.	16c	.
.	.	16E	8gJ) 8gg
.	.	16cJJ	.
.	.	16GLL	8r
.	.	16c	.
.	.	16B-	8cc
.	.	16cJJ	.
.	.	16GLL	(16ccLL
.	.	16c	16ccc)
.	.	16E	(16cc
.	.	16cJJ	16cccJJ)
=368	=368	=368	=368
2.T	2.I	16FLL	4.a 4.aa
.	.	16c	.
.	.	16B	.
.	.	16cJJ	.
.	.	16B-LL	.
.	.	16c	.
.	.	16A	8f' 8ff'
.	.	16cJJ	.
.	.	16GLL	8a'L 8aa'
.	.	16c	.
.	.	16F	8cc'J 8ccc'
.	.	16cJJ	.
=369	=369	=369	=369
4T	4Vb	16ELL	8cc 8ccc
.	.	16c	.
.	.	16G	4b 4bb
.	.	16cJJ	.
4T	4viioD7b/vi	16ELL	.
.	.	16c#	.
.	.	16G	4b- 4bb-
.	.	16c#JJ	.
4T	4vib	16FLL	.
.	.	16d	.
.	.	16A	[8a [8aa
.	.	16dJJ	.
=370	=370	=370	=370
2D	2Cc/V	16GLL	8a] 8aa]
.	.	16e	.
.	.	16c	4g 4gg
.	.	16GJJ	.
.	.	16ELL	.
.	.	16G	.
.	.	16E	8f' 8ff'
.	.	16CJJ	.
4D	4V7/V	16GGLL	8e'L 8ee'
.	.	16BB	.
.	.	16D	8d'J 8dd'
.	.	16GJJ	.
=371	=371	=371	=371
2.D	2.V	16CLL	8c 8cc
.	.	16G	.
.	.	16F#	4e 4ee
.	.	16GJJ	.
.	.	16FLL	.
.	.	16G	.
.	.	16E	4g 4gg
.	.	16GJJ	.
.	.	16DLL	.
.	.	16G	.
.	.	16C	[8cc [8ccc
.	.	16GJJ	.
=372	=372	=372	=372
2D	2Cc/V	16GGLL	8cc] 8ccc]
.	.	16G	.
.	.	16C	4ee 4eee
.	.	16GJJ	.
.	.	16ELL	.
.	.	16G	.
.	.	16C	8ee' 8eee'
.	.	16GJJ	.
4D	4V7/V	16GGLL	8ff'L 8fff'
.	.	16G	.
.	.	16D	8b'J 8bb'
.	.	16GJJ	.
=373	=373	=373	=373
2.D	2.V	16CLL	8cc 8ccc
.	.	16G	.
.	.	16F#	4e 4ee
.	.	16GJJ	.
.	.	16FLL	.
.	.	16G	.
.	.	16E	4g 4gg
.	.	16GJJ	.
.	.	16DLL	.
.	.	16G	.
.	.	16C	[8cc [8ccc
.	.	16GJJ	.
=374	=374	=374	=374
2D	2Cc/V	16GGLL	8cc] 8ccc]
.	.	16G	.
.	.	16C	4ee 4eee
.	.	16GJJ	.
.	.	16ELL	.
.	.	16G	.
.	.	16C	8ee' 8eee'
.	.	16GJJ	.
4D	4V7/V	16GGLL	8ff'L 8fff'
.	.	16G	.
.	.	16D	8b'J 8bb'
.	.	16GJJ	.
=375	=375	=375	=375
2.D	2.V	16CLL	4cc 4ccc
.	.	16c	.
.	.	16B	.
.	.	16cJJ	.
.	.	16BLL	4r
.	.	16c	.
.	.	16B-	.
.	.	16cJJ	.
.	.	16ALL	4r
.	.	16c	.
.	.	16G	.
.	.	16cJJ	.
*-	*-	*-	*-
!!!COM: Beethoven
!!!OTL: 7 Variations on a Quartet by Winter
!!!Variation: Variation 7 d
**function	**harm	**kern	**kern
*	*	*clefF4	*clefG2
*	*	*k[b-]	*k[b-]
*M2/4	*M2/4	*M2/4	*M2/4
*F:	*F:	*F:	*F:
=376	=376	=376	=376
2.P	2.V7/ii	16F#LL	8ccL 8dd
.	.	16d	.
.	.	16G	8ccJ 8dd
.	.	16dJJ	.
.	.	16ALL	8ccL 8dd
.	.	16d	.
.	.	16D	8ccJ 8dd
.	.	16dJJ	.
.	.	16ELL	8ccL 8dd
.	.	16d	.
.	.	16F#	8ccJ 8dd
.	.	16dJJ	.
=377	=377	=377	=377
2P	2ii	16GLL	(8b-L 8dd
.	.	16d	.
.	.	16A	8ggJ)
.	.	16dJJ	.
.	.	16B-LL	4gg
.	.	16d	.
.	.	16A	.
.	.	16dJJ	.
4P	4V7d/V	16GLL	4r
.	.	16d	.
.	.	16F	.
.	.	16dJJ	.
=378	=378	=378	=378
2.D	2.V7	16ELL	8b-L 8cc
.	.	16c	.
.	.	16F	8b-J 8cc
.	.	16cJJ	.
.	.	16GLL	8b-L 8cc
.	.	16c	.
.	.	16C	8b-J 8cc
.	.	16cJJ	.
.	.	16DLL	8b-L 8cc
.	.	16c	.
.	.	16E	8b-J 8cc
.	.	16cJJ	.
=379	=379	=379	=379
2T	2I	16FLL	(8aL 8cc
.	.	16c	.
.	.	16G	8ffJ)
.	.	16cJJ	.
.	.	16ALL	4ff
.	.	16c	.
.	.	16B-	.
.	.	16cJJ	.
*-	*-	*-	*-
!!!COM: Beethoven
!!!OTL: 7 Variations on a Quartet by Winter
!!!Variation: Variation 7 e
**function	**harm	**kern	**kern
*	*	*clefF4	*clefG2
*	*	*k[b-]	*k[b-]
*M2/4	*M2/4	*M2/4	*M2/4
*F:	*F:	*F:	*F:
4T	4I	16BLL	8cc'L
.	.	16c	.
.	.	16d	8cc'J
.	.	16cJJ	.
=380	=380	=380	=380
2.T	2.I	16ALL	8cc
.	.	16c	.
.	.	16B	4f 4ff
.	.	16cJJ	.
.	.	16B-LL	.
.	.	16c	.
.	.	16A	4a 4aa
.	.	16cJJ	.
.	.	16GLL	.
.	.	16c	.
.	.	16F	[8cc [8ccc
.	.	16cJJ	.
=381	=381	=381	=381
2T	2V7	16ELL	8cc] 8ccc]
.	.	16c	.
.	.	16G	4b 4bb
.	.	16cJJ	.
.	.	16ELL	.
.	.	16G	.
.	.	16C	4b- 4bb-
.	.	16EJJ	.
4T	4vi	16FLL	.
.	.	16A	.
.	.	16D	[8a [8aa
.	.	16FJJ	.
=382	=382	=382	=382
4P	4iib	16BB-LL	8a] 8aa]
.	.	16D	.
.	.	16G	4dd 4ddd
.	.	16B-JJ	.
4D	4Cc	16CLL	.
.	.	16F	.
.	.	16A	4cc 4ccc
.	.	16cJJ	.
4D	4V7	16CLL	.
.	.	16G	.
.	.	16B-	8e 8ee
.	.	16cJJ	.
=383	=383	=383	=383
2.T	2.I	4F 4A	16fLL 16ff
.	.	.	(16cc
.	.	.	16b
.	.	.	16ccJJ
.	.	4r	16bLL
.	.	.	16cc
.	.	.	16dd
.	.	.	16ccJJ
.	.	4r	16b-LL
.	.	.	16a
.	.	.	16g
.	.	.	16fJJ)
*-	*-	*-	*-
!!!COM: Beethoven
!!!OTL: 7 Variations on a Quartet by Winter
!!!Variation: Variation 7 f
**function	**harm	**kern	**kern
*	*	*clefF4	*clefG2
*	*	*k[b-]	*k[b-]
*M2/4	*M2/4	*M2/4	*M2/4
*F:	*F:	*F:	*F:
=384	=384	=384	=384
2.T	2.V7	8C'L	16r
.	.	.	16g 16b- 16cc
.	.	8E'J	16r
.	.	.	16g 16b- 16cc
.	.	8D'L	16r
.	.	.	16g 16b- 16cc
.	.	8C'J	16r
.	.	.	16g 16b- 16cc
.	.	8D'L	16r
.	.	.	16g 16b- 16cc
.	.	8E'J	16r
.	.	.	16g 16b- 16cc
=385	=385	=385	=385
2.T	2.I	8F'L	16r
.	.	.	16f 16a 16cc
.	.	8A'J	16r
.	.	.	16f 16a 16cc
.	.	8G'L	16r
.	.	.	16f 16a 16cc
.	.	8F'J	16r
.	.	.	16f 16a 16cc
.	.	8E'L	16r
.	.	.	16f 16a 16cc
.	.	8D'J	16r
.	.	.	16f 16a 16cc
=386	=386	=386	=386
2.T	2.V	8C'L	16r
.	.	.	16g 16cc 16ee
.	.	8BB'J	16r
.	.	.	16g 16cc 16ee
.	.	8C'L	16r
.	.	.	16g 16cc 16ee
.	.	8D'J	16r
.	.	.	16g 16cc 16ee
.	.	8C'L	16r
.	.	.	16g 16cc 16ee
.	.	8BB-'J	16r
.	.	.	16g 16cc 16ee
=387	=387	=387	=387
2.T	2.I	8AA'L	16r
.	.	.	16a 16cc 16ff
.	.	8C'J	16r
.	.	.	16a 16cc 16ff
.	.	8BB-'L	16r
.	.	.	16a 16cc 16ff
.	.	8AA'J	16r
.	.	.	16a 16cc 16ff
.	.	8GG'L	16r
.	.	.	16a 16cc 16ff
.	.	8FF'J	16r
.	.	.	16a 16cc 16ff
=388	=388	=388	=388
2.T	2.V7	8CC'L	16r
.	.	.	16b- 16cc 16gg
.	.	8EE'J	16r
.	.	.	16g 16b- 16cc
.	.	8DD'L	16r
.	.	.	16g 16b- 16cc
.	.	8CC'J	16r
.	.	.	16g 16b- 16cc
.	.	8DD'L	16r
.	.	.	16g 16b- 16cc
.	.	8EE'J	16r
.	.	.	16g 16b- 16cc
=389	=389	=389	=389
4.T	4.I	8FF'L	16r
.	.	.	16f 16a 16cc
.	.	8GG'J	16r
.	.	.	16f 16a 16ff
.	.	8AA'L	16r
.	.	.	16f 16a 16ff
4.T	4.vi	8DD'J	16r
.	.	.	16f 16a 16ff
.	.	8EE'L	16r
.	.	.	16f 16a 16ff
.	.	8FF'J	16r
.	.	.	16f 16a 16ff
=390	=390	=390	=390
4.P	4.ii7	8BBB-'L	16r
.	.	.	16g 16dd 16ff
.	.	8AAA'J	16r
.	.	.	16g 16dd 16ff
.	.	8GGG'L	16r
.	.	.	16g 16dd 16ff
4.D	4.V7	8CC'J	16r
.	.	.	16g 16b- 16ee
.	.	8BBB'L	16r
.	.	.	16g 16b- 16ee
.	.	8CC'J	16r
.	.	.	16g 16b- 16ee
=391	=391	=391	=391
8T	8I	8FFF'L	16r
.	.	.	16a 16ff
*-	*-	*-	*-
!!!COM: Beethoven
!!!OTL: 7 Variations on a Quartet by Winter
!!!Variation: Variation 7 g
**function	**harm	**kern	**kern
*	*	*clefF4	*clefG2
*	*	*k[b-]	*k[b-]
*M3/4	*M3/4	*M3/4	*M3/4
*F:	*F:	*F:	*F:
8T	8I	8A'J	16r
.	.	.	16a
2T	2I	8G'L	16r
.	.	.	16g
.	.	8F'J	16r
.	.	.	16f
.	.	8E'L	16r
.	.	.	16e
.	.	8D'J	16r
.	.	.	16d
=392	=392	=392	=392
*	*	*^	*
2.D	2.V7/vi	2.AA	8AAL	16r
.	.	.	.	16a
.	.	.	8EJ 8G	16r
.	.	.	.	16cc#
.	.	.	8EL 8G	16r
.	.	.	.	16b
.	.	.	8EJ 8G	16r
.	.	.	.	16a
.	.	.	8EL 8G	16r
.	.	.	.	16b
.	.	.	8EJ 8G	16r
.	.	.	.	16cc#
=393	=393	=393	=393	=393
2.D	2.Cc/vi	2.AA	8AAL	16r
.	.	.	.	16dd
.	.	.	8DJ 8F	16r
.	.	.	.	16ff
.	.	.	8DL 8F	16r
.	.	.	.	16ee
.	.	.	8DJ 8F	16r
.	.	.	.	16dd
.	.	.	8DL 8F	16r
.	.	.	.	16ee
.	.	.	8DJ 8F	16r
.	.	.	.	16ff
=394	=394	=394	=394	=394
2.D	2.V7/vi	2.AA	8AAL	16r
.	.	.	.	16A 16a
.	.	.	8EJ 8G	16r
.	.	.	.	16c# 16cc#
.	.	.	8EL 8G	16r
.	.	.	.	16B 16b
.	.	.	8EJ 8G	16r
.	.	.	.	16A 16a
.	.	.	8EL 8G	16r
.	.	.	.	16B 16b
.	.	.	8EJ 8G	16r
.	.	.	.	16c# 16cc#
=395	=395	=395	=395	=395
2.D	2.Cc/vi	2.AA	8AAL	16r
.	.	.	.	16d 16dd
.	.	.	8DJ 8F	16r
.	.	.	.	16f 16ff
.	.	.	8DL 8F	16r
.	.	.	.	16e 16ee
.	.	.	8DJ 8F	16r
.	.	.	.	16d 16dd
.	.	.	8DL 8F	16r
.	.	.	.	16e 16ee
.	.	.	8DJ 8F	16r
.	.	.	.	16f 16ff
=396	=396	=396	=396	=396
2.P	2.-VI/vi	2.BB-	8BB-L	16r
.	.	.	.	16d 16dd
.	.	.	8DJ 8F	16r
.	.	.	.	16f 16ff
.	.	.	8DL 8F	16r
.	.	.	.	16e 16ee
.	.	.	8DJ 8F	16r
.	.	.	.	16d 16dd
.	.	.	8DL 8F	16r
.	.	.	.	16f 16ff
.	.	.	8DJ 8F	16r
.	.	.	.	16e 16ee
=397	=397	=397	=397	=397
2.P	2.Gn/vi	2.BB-	8BB-L	16r
.	.	.	.	16d 16dd
.	.	.	8DJ 8G#	16r
.	.	.	.	16c# 16cc#
.	.	.	8DL 8G#	16r
.	.	.	.	16d 16dd
.	.	.	8DJ 8G#	16r
.	.	.	.	16e 16ee
.	.	.	8DL 8G#	16r
.	.	.	.	16f 16ff
.	.	.	8DJ 8G#	16r
.	.	.	.	16g# 16gg#
*	*	*v	*v	*
=398	=398	=398	=398
2D	2V/vi	4AA 4C# 4E 4A	16aaLL
.	.	.	16a
.	.	.	16cc#
.	.	.	16eeJJ
.	.	4r	16aaLL
.	.	.	16eee
.	.	.	16ccc#
.	.	.	16aaJJ
4D	4viioD7/V/vi	8.AL 8.d 8.f	16gg#LL
.	.	.	16fff
.	.	.	16ddd
.	.	16AJk 16d 16f	16gg#JJ
=399	=399	=399	=399
2D	2V/vi	4A 4c# 4e	16aaLL
.	.	.	16ccc#
.	.	.	16eee
.	.	.	16ccc#JJ
.	.	4r	16aaLL
.	.	.	16ee
.	.	.	16cc#
.	.	.	16aJJ
.	4viioD7/V/vi	8.AAL 8.D 8.F	16g#LL
.	.	.	16ff
.	.	.	16dd
.	.	16AAJk 16D 16F	16g#JJ
=400	=400	=400	=400
2D	2V/vi	4AA 4C# 4E	16aLL
.	.	.	16cc#
.	.	.	16ee
.	.	.	16aaJJ
.	.	4r	16ccc#LL
.	.	.	16eee
.	.	.	16ccc#
.	.	.	16aaJJ
4D	4viioD7/V/vi	8.AL 8.d 8.f	16gg#LL
.	.	.	16fff
.	.	.	16ddd
.	.	16AJk 16d 16f	16gg#JJ
=401	=401	=401	=401
2D	2V/vi	4A 4c# 4e	16aaLL
.	.	.	16ccc#
.	.	.	16eee
.	.	.	16ccc#JJ
.	.	4r	16aaLL
.	.	.	16ee
.	.	.	16cc#
.	.	.	16aJJ
4D	4viioD7/V/vi	8.AAL 8.D 8.F	16g#LL
.	.	.	16ff
.	.	.	16dd
.	.	16AAJk 16D 16F	16g#JJ
=402	=402	=402	=402
2D	2V/vi	4AA 4C# 4E	16aLL
.	.	.	16cc#
.	.	.	16ee
.	.	.	16aaJJ
.	.	4r	16ccc#LL
.	.	.	16eee
.	.	.	16ccc#
.	.	.	16aaJJ
4D	4viioD7/V/vi	4r	16gg#LL
.	.	.	16fff
.	.	.	16ddd
.	.	.	16gg#JJ
=403	=403	=403	=403
4D	4V/vi	2.r	16aaLL
.	.	.	16eee
.	.	.	16ccc#
.	.	.	16aaJJ
4D	4viioD7/V/vi	.	16gg#LL
.	.	.	16fff
.	.	.	16ddd
.	.	.	16bbJJ
4D	4V/vi	.	16aaLL
.	.	.	16eee
.	.	.	16ccc#
.	.	.	16aaJJ
=404	=404	=404	=404
4D	4viioD7/V/vi	2.r	16gg#LL
.	.	.	16fff
.	.	.	16ddd
.	.	.	16gg#JJ
4D	4V/vi	.	16aaLL
.	.	.	16eee
.	.	.	16ccc#
.	.	.	16aaJJ
4D	4viioD7/V/vi	.	16gg#LL
.	.	.	16fff
.	.	.	16ddd
.	.	.	16gg#JJ
=405	=405	=405	=405
4D	4V/vi	2.r	16aaLL
.	.	.	16eee
.	.	.	16ccc#
.	.	.	16aaJJ
4D	4viioD7/V/vi	.	16gg#LL
.	.	.	16fff
.	.	.	16ddd
.	.	.	16gg#JJ
4D	4V/vi	.	16aaLL
.	.	.	16eee
.	.	.	16ccc#
.	.	.	16aaJJ
=406	=406	=406	=406
2.D	2.viioD7/V/vi	2.r	16gg#LL
.	.	.	16aa
.	.	.	16bb
.	.	.	16aaJJ
.	.	.	16gg#LL
.	.	.	16aa
.	.	.	16bb
.	.	.	16aaJJ
.	.	.	16gg#LL
.	.	.	16aa
.	.	.	16bb
.	.	.	16aaJJ
=407	=407	=407	=407
2.D	2.viioD7/V/vi	2.r	16gg#LL
.	.	.	16aa
.	.	.	16bb
.	.	.	16aaJJ
.	.	.	16gg#LL
.	.	.	16aa
.	.	.	16bb
.	.	.	16aaJJ
.	.	.	16gg#LL
.	.	.	16aa
.	.	.	16bb
.	.	.	16aaJJ
=408	=408	=408	=408
2.D	2.V7/vi	2.r	16ggLL
.	.	.	16aa
.	.	.	16bb
.	.	.	16aaJJ
.	.	.	16ggLL
.	.	.	16aa
.	.	.	16bb
.	.	.	16aaJJ
.	.	.	16ggLL
.	.	.	16aa
.	.	.	16bb
.	.	.	16aaJJ
=409	=409	=409	=409
2.D	2.V7/vi	2.r	16ggLL
.	.	.	16aa
.	.	.	16bb
.	.	.	16aaJJ
.	.	.	16ggLL
.	.	.	16aa
.	.	.	16bb
.	.	.	16aaJJ
.	.	.	16ggLL
.	.	.	16bb
.	.	.	16aa
.	.	.	16gg;JJ
=410	=410	=410	=410
*M2/4	*M2/4	*M2/4	*M2/4
*D:	*D:	*D:	*D:
2T	2I	4r	(8ff#L
.	.	.	8ddJ
*	*	*clefG2	*
.	.	8r	8ff#L
.	.	(8ccn	8aaJ)
=411	=411	=411	=411
4T	4IVb	8bL	(4gg
.	.	8ddJ	.
4T	4Ic	8aL	4ff#)
.	.	8ddJ)	.
=412	=412	=412	=412
4P	4iib	(8gL	8ee'L
.	.	8bJ	8dd'J
4P	4ii7	8eL	8cc#'L
.	.	8gJ)	8dd'J
=413	=413	=413	=413
2D	2V	(8c#L	4ee
.	.	8eJ	.
.	.	8A)	8r
.	.	8r	(8aa
=414	=414	=414	=414
4.T	4.I	4r	8ff#L
.	.	.	8ddJ
.	.	8r	8ff#L
8T	8V7d/IV	(8cc	8aaJ)
=415	=415	=415	=415
4T	4IVb	8bL	(4gg
.	.	8ddJ	.
4T	4Ic	8aL	4ff#)
.	.	8ddJ)	.
=416	=416	=416	=416
4P	4iib	(8gL	8ee'L
.	.	8bJ	8ee'J
4D	4V7c	8eL	(16ddLL
.	.	.	16cc#
.	.	8gJ)	16b
.	.	.	16cc#JJ)
=417	=417	=417	=417
2T	2I	(8f#L	4dd
.	.	8aJ	.
.	.	8d)	8r
.	.	8r	(8a
=418	=418	=418	=418
2T	2I	2r	8f#L
.	.	.	8dJ
.	.	.	8f#L
.	.	.	8aJ)
*	*	*clefF4	*
=419	=419	=419	=419
*	*	*	*^
4T	4IV	[2DD	(8BL	(4g
.	.	.	8dJ	.
4T	4I	.	8AL	4f#)
.	.	.	8dJ)	.
=420	=420	=420	=420	=420
2P	2ii7	2DD_	8G'L	8e'L
.	.	.	8B'J	8d'J
.	.	.	8E'L	8c#'L
.	.	.	8G'J	8d'J
=421	=421	=421	=421	=421
2D	2V	4.DD]	8C#'L	4e
.	.	.	8E'J	.
.	.	.	8AA'	8r
*	*	*v	*v	*
.	.	8r	(8a
=422	=422	=422	=422
2T	2I	2r	8f#L
.	.	.	8dJ
.	.	.	8f#L
.	.	.	8aJ)
=423	=423	=423	=423
*	*	*^	*
4T	4IV	[2DD	(8BL	(4g
.	.	.	8dJ	.
4T	4I	.	8AL	4f#)
.	.	.	8dJ)	.
=424	=424	=424	=424	=424
4P	4ii	2DD_	8G'L	8e'L
.	.	.	8B'J	8e'J
.	.	.	.	q8d
4D	4V7c	.	8E'L	8c#L
.	.	.	8G'J	16BL
.	.	.	.	16c#JJ
=425	=425	=425	=425	=425
2T	2I	4.DD]	8F#'L	4d
.	.	.	8A'J	.
.	.	.	8D'L	4r
*	*	*v	*v	*
.	.	(8AA'J	.
=426	=426	=426	=426
2T	2i	8FFL	2r
.	.	8DDJ	.
.	.	8FFL	.
.	.	8AAJ)	.
=427	=427	=427	=427
2T	2ic	4.BB-	8r
.	.	.	(8D
.	.	.	8FL
.	.	[8AA	8AJ)
=428	=428	=428	=428
2T	2vi/-VI	(8AAL]	4.B-
.	.	8GGJ	.
.	.	8BB-L	.
.	.	8DJ)	[8A
=429	=429	=429	=429
2T	2vic/-VI	4.E-	(8AL]
.	.	.	8GJ
.	.	.	8B-L
.	.	([8D	8dJ)
=430	=430	=430	=430
2P	2ii/-VI	8DL]	(4.e-
.	.	8CJ	.
.	.	8E-L	.
.	.	8GJ)	8d)
=431	=431	=431	=431
2D	2V7/-VI	(8AL	(8cL
.	.	8FJ	8fJ
.	.	8GL	8eL
.	.	8AJ)	8e-J)
=432	=432	=432	=432
4T	4I/-VI	(8B-L	(8dL
.	.	8DJ	8fJ
4P	4ii/-VI	8E-L	8cL
.	.	8CJ	8e-J
=433	=433	=433	=433
4D	4Cc/-VI	8FL	8B-L
.	.	8EJ	8dJ
4D	4V/-VI	8FL	8AL
.	.	8FFJ)	8cJ)
=434	=434	=434	=434
*B-:	*B-:	*B-:	*B-:
2T	2I	16BB-LL	4B-
.	.	16B-	.
.	.	16BB-	.
.	.	16B-JJ	.
.	.	16BB-LL	8r
.	.	16B-	.
.	.	16BB-	(8ff
.	.	16B-JJ	.
=435	=435	=435	=435
2T	2I	16BB-LL	8ddL
.	.	16B-	.
.	.	16BB-	8b-J
.	.	16B-JJ	.
.	.	16BB-LL	8ddL
.	.	16B-	.
.	.	16BB-	8ffJ)
.	.	16B-JJ	.
=436	=436	=436	=436
4.T	4.viioD7	16BB-LL	(4.a 4.ee 4.gg
.	.	16B-	.
.	.	16BB-	.
.	.	16B-JJ	.
.	.	16BB-LL	.
.	.	16B-	.
8T	8I	16BB-	8b-) 8dd 8ff
.	.	16B-JJ	.
=437	=437	=437	=437
2T	2I	16BB-LL	(8gL 8b- 8ee-
.	.	16B-	.
.	.	16BB-	8fJ) 8a 8dd
.	.	16B-JJ	.
.	.	16BB-LL	8e-'L 8g' 8cc'
.	.	16B-	.
.	.	16BB-	8d'J 8f' 8b-'
.	.	16B-JJ	.
=438	=438	=438	=438
4T	4V7	16BB-LL	4.c 4.e- (4b-
.	.	16B-	.
.	.	16BB-	.
.	.	16B-JJ	.
4T	4I	16BB-LL	8aL)
.	.	16B-	.
.	.	16BB-	(8ffJ
.	.	16B-JJ	.
=439	=439	=439	=439
2T	2I	16BB-LL	8dd-L
.	.	16B-	.
.	.	16BB-	8b-J
.	.	16B-JJ	.
.	.	16BB-LL	8dd-L
.	.	16B-	.
.	.	16BB-	8ffJ)
.	.	16B-JJ	.
=440	=440	=440	=440
4.T	4.viioD7	16BB-LL	(4.a 4.ee 4.gg-
.	.	16B-	.
.	.	16BB-	.
.	.	16B-JJ	.
.	.	16BB-LL	.
.	.	16B-	.
8T	8I	16BB-	8b-) 8dd- 8ff
.	.	16B-JJ	.
=441	=441	=441	=441
*b-:	*b-:	*b-:	*b-:
*	*	*	*^
4P	iiob	16EE-LL	4g- 4cc	(8ffL
.	.	16E-	.	.
.	.	16EE-	.	8ee-J)
.	.	16E-JJ	.	.
*	*	*	*v	*v
8D	8Cc	16FFLL	8f'L 8b-' 8dd-'
.	.	16F	.
8D	8V7	16FF	8e-'J 8a' 8cc'
.	.	16FJJ	.
=442	=442	=442	=442
2T	2i	16BBB-LL	(4e- 4a 4cc
.	.	16BB-	.
.	.	16BBB-	.
.	.	16BB-JJ	.
.	.	8BBB-L	8d-) 8f 8b-
.	.	(8FJ	8r
=443	=443	=443	=443
2T	2i	8D-L	2r
.	.	8BB-J	.
.	.	8D-L	.
.	.	8FJ)	.
=444	=444	=444	=444
2T	2i	4.G-	8r
.	.	.	(8B-
.	.	.	8d-L
.	.	8F	8fJ)
=445	=445	=445	=445
*D-:	*D-:	*D-:	*D-:
2P	2ii	(8E-L	([2g-
.	.	8G-J	.
.	.	8B-L	.
.	.	8dJ)	.
=446	=446	=446	=446
2P	2ii	4.e-	8g-L]
.	.	.	8b-J
.	.	.	8ee-L
.	.	(8d-	8ffJ)
=447	=447	=447	=447
2D	2V7	8cL	4.gg-
.	.	8A-J	.
.	.	8cL	.
.	.	8e-J)	(8ee-
=448	=448	=448	=448
4D	2V7d	2g-	8ccL
.	.	.	8ee-J
.	.	.	8ccL
.	.	.	8a-J)
=449	=449	=449	=449
4T	4Ib	(8fL	(8dd-L
.	.	8A-J	8ffJ
4P	4iib	8B-L	8g-L
.	.	8G-J	8ee-J
=450	=450	=450	=450
4D	4Cc	8A-L	8fL
.	.	8GJ	8dd-J
4D	4V	8A-L	8e-L
.	.	8AA-J)	8ccJ)
=451	=451	=451	=451
2T	2I	16D-LL	4f 4dd-
.	.	16d-	.
.	.	16D-	.
.	.	16d-JJ	.
.	.	16D-LL	8r
.	.	16d-	.
.	.	16D-	(8aa-
.	.	16d-JJ	.
=452	=452	=452	=452
2T	2I	16D-LL	8ffL
.	.	16d-	.
.	.	16D-	8dd-J
.	.	16d-JJ	.
.	.	16D-LL	8ffL
.	.	16d-	.
.	.	16D-	8aa-J)
.	.	16d-JJ	.
=453	=453	=453	=453
4.T	4.viioD7	16D-LL	(4.cc 4.gg- 4.bb-
.	.	16d-	.
.	.	16D-	.
.	.	16d-JJ	.
.	.	16D-LL	.
.	.	16d-	.
8T	8I	16D-	8dd-) 8ff 8aa-
.	.	16d-JJ	.
=454	=454	=454	=454
2T	2I	16D-LL	(8b-L 8dd- 8gg-
.	.	16d-	.
.	.	16D-	8a-J) 8cc 8ff
.	.	16d-JJ	.
.	.	16D-LL	8g-'L 8b-' 8ee-'
.	.	16d-	.
.	.	16D-	8f'J 8a-' 8dd-'
.	.	16d-JJ	.
=455	=455	=455	=455
*	*	*	*^
4.T	4.V7	16D-LL	4.e- 4.g-	(4dd-
.	.	16d-	.	.
.	.	16D-	.	.
.	.	16d-JJ	.	.
.	.	16D-LL	.	8ccL)
.	.	16d-	.	.
*	*	*	*v	*v
8T	8I	16D-	(8aa-J
.	.	16d-JJ	.
=456	=456	=456	=456
2T	2I	16D-LL	8ffL
.	.	16d-	.
.	.	16D-	8dd-J
.	.	16d-JJ	.
.	.	16D-LL	8ffL
.	.	16d-	.
.	.	16D-	8aa-J)
.	.	16d-JJ	.
=457	=457	=457	=457
4.T	4.viioD7	16D-LL	4.cc 4.gg- (4.bb-
.	.	16d-	.
.	.	16D-	.
.	.	16d-JJ	.
.	.	16D-LL	.
.	.	16d-	.
8T	8I	16D-	8dd- 8ff 8aa-)
.	.	16d-JJ	.
=458	=458	=458	=458
*	*	*	*^
4P	4iib	16GG-LL	4b- 4ee-	(8aa-L
.	.	16G-	.	.
.	.	16GG-	.	8gg-J)
.	.	16G-JJ	.	.
8D	8Cc	16AA-LL	8a-'L 8dd-'	8ff'L
.	.	16A-	.	.
8D	8V7	16AA-	8g-'J 8cc'	8ee-'J
.	.	16A-JJ	.	.
=459	=459	=459	=459	=459
2T	2I	16DD-LL	(4g- 4cc	(4ee-
.	.	16D-	.	.
.	.	16DD-	.	.
.	.	16D-JJ	.	.
.	.	8DD-	8f) 8a-	8dd-)
*	*	*	*v	*v
.	.	(8AA-	8r
=460	=460	=460	=460
2T	2I	8FFL	2r
.	.	8DD-J	.
.	.	8FFL	.
.	.	8AA-J)	.
=461	=461	=461	=461
*f:	*f:	*f:	*f:
2T	2-VIc	4.BB-	8r
.	.	.	(8D-
.	.	.	8FL
.	.	8AA-	8A-J)
=462	=462	=462	=462
2P	2iiom7	4.GG	8r
.	.	.	(8B- 8b-
.	.	.	8cL 8cc
.	.	8FF	8d-J) 8dd-
=463	=463	=463	=463
2D	2V7b	4.EE	8r
.	.	.	(8d- 8dd-
.	.	.	8BL 8b
.	.	(8C	8cJ) 8cc
=464	=464	=464	=464
2T	2i	8AA-L	2r
.	.	8FFJ	.
.	.	8AA-L	.
.	.	8CJ)	.
=465	=465	=465	=465
2T	2ic	(4.D-	8r
.	.	.	(8F 8f
.	.	.	8A-L 8a-
.	.	8C)	8cJ) 8cc
=466	=466	=466	=466
2P	2viioD7/V	4.BB	8r
.	.	.	(8a- 8aa-
.	.	.	8gL 8gg
.	.	8BBB	8fJ) 8ff
=467	=467	=467	=467
2D	2V	16CCLL	4e 4ee
.	.	16C	.
.	.	16CC	.
.	.	16CJJ	.
.	.	16CCLL	8r
.	.	16C	.
.	.	16CC	(8ccc
.	.	16CJJ	.
=468	=468	=468	=468
2D	2V	16CCLL	8ggL
.	.	16C	.
.	.	16CC	8eeJ
.	.	16CJJ	.
.	.	16CCLL	8ggL
.	.	16C	.
.	.	16CC	8cccJ)
.	.	16CJJ	.
=469	=469	=469	=469
2D	2ic	16CCLL	(8ffL
.	.	16C	.
.	.	16CC	8ccJ
.	.	16CJJ	.
.	.	16CCLL	8ffL
.	.	16C	.
.	.	16CC	8aa-J)
.	.	16CJJ	.
=470	=470	=470	=470
*	*	*	*^
2D	2viioD7/V	16CCLL	(8fL	2b
.	.	16C	.	.
.	.	16CC	8dJ	.
.	.	16CJJ	.	.
.	.	16CCLL	8fL	.
.	.	16C	.	.
.	.	16CC	8a-J)	.
.	.	16CJJ	.	.
=471	=471	=471	=471	=471
2D	2V	16CCLL	(8eL	4cc
.	.	16C	.	.
.	.	16CC	8gJ	.
.	.	16CJJ	.	.
.	.	16CCLL	8c)	8r
.	.	16C	.	.
.	.	16CC	8r	(8ccc
.	.	16CJJ	.	.
*	*	*	*v	*v
=472	=472	=472	=472
2D	2V	16CCLL	8ggL
.	.	16C	.
.	.	16CC	8eeJ
.	.	16CJJ	.
.	.	16CCLL	8ggL
.	.	16C	.
.	.	16CC	8cccJ)
.	.	16CJJ	.
=473	=473	=473	=473
2D	2ic	16CCLL	(8ffL
.	.	16C	.
.	.	16CC	8ccJ
.	.	16CJJ	.
.	.	16CCLL	8ffL
.	.	16C	.
.	.	16CC	8aa-J)
.	.	16CJJ	.
=474	=474	=474	=474
*	*	*	*^
2D	2viioD7/V	16CCLL	(8fL	2b
.	.	16C	.	.
.	.	16CC	8dJ	.
.	.	16CJJ	.	.
.	.	16CCLL	8fL	.
.	.	16C	.	.
.	.	16CC	8a-J)	.
.	.	16CJJ	.	.
=475	=475	=475	=475	=475
2D	2V	16CCLL	(8eL	4cc
.	.	16C	.	.
.	.	16CC	8gJ	.
.	.	16CJJ	.	.
.	.	16CCLL	8c)	8r
.	.	16C	.	.
.	.	16CC	8r	8cc
.	.	16CJJ	.	.
=476	=476	=476	=476	=476
2D	2viioD7/V	16CCLL	(8fL	2b
.	.	16C	.	.
.	.	16CC	8dJ	.
.	.	16CJJ	.	.
.	.	16CCLL	8fL	.
.	.	16C	.	.
.	.	16CC	8a-J)	.
.	.	16CJJ	.	.
=477	=477	=477	=477	=477
2D	2V	16CCLL	(8eL	4cc
.	.	16C	.	.
.	.	16CC	8gJ	.
.	.	16CJJ	.	.
.	.	16CCLL	8c)	8r
.	.	16C	.	.
.	.	16CC	8r	8cc
.	.	16CJJ	.	.
=478	=478	=478	=478	=478
2D	2viioD7/V	16CCLL	(8fL	2b
.	.	16C	.	.
.	.	16CC	8dJ	.
.	.	16CJJ	.	.
.	.	16CCLL	8fL	.
.	.	16C	.	.
.	.	16CC	8a-J)	.
.	.	16CJJ	.	.
=479	=479	=479	=479	=479
2D	2V	4CC 4C	4e	16ccLL
.	.	.	.	16b
.	.	.	.	16a
.	.	.	.	16gJJ
*	*	*	*v	*v
.	.	4r	16fLL
.	.	.	16e
.	.	.	16d
.	.	.	16cJJ
=480	=480	=480	=480
2D	2V7/V	4C' 4F' 4G'	16BLL
.	.	.	16c
.	.	.	16d
.	.	.	16eJJ
.	.	4C' 4F' 4G'	16fLL
.	.	.	16g
.	.	.	16a
.	.	.	16bJJ
=481	=481	=481	=481
2D	2V	4C 4E 4G	16ccLL
.	.	.	16dd
.	.	.	16ee
.	.	.	16ffJJ
.	.	4r	16ggLL
.	.	.	16aa
.	.	.	16bb
.	.	.	16cccJJ
=482	=482	=482	=482
2D	2V7/V	4C' 4F' 4G' 4B'	16bLL
.	.	.	16cc
.	.	.	16dd
.	.	.	16eeJJ
.	.	4C' 4F' 4G' 4B'	16ffLL
.	.	.	16gg
.	.	.	16aa
.	.	.	16bbJJ
=483	=483	=483	=483
2D	2V	4C 4E 4G 4c	[2ccc
.	.	4r	.
=484	=484	=484	=484
2D	2V	2r	2ccc_
=485	=485	=485	=485
2D	2V	2r	2ccc_
*	*	*clefG2	*
=486	=486	=486	=486
2D	2V	4r	2ccc_
.	.	8r	.
.	.	(8cc	.
=487	=487	=487	=487
2D	2I	8aL	2ccc_
.	.	8fJ	.
.	.	8aL	.
.	.	[8ccJ	.
=488	=488	=488	=488
*	*	*^	*
4D	4V7c	4g	8cc])	2ccc_
.	.	.	4b-	.
4D	4I	4f	.	.
.	.	.	[8a	.
=489	=489	=489	=489	=489
4D	4Vb	4e	8a]	2ccc_
.	.	.	4g	.
4D	4vi	4d	.	.
.	.	.	8f	.
=490	=490	=490	=490	=490
4D	2V	4c	(8fL	2ccc_
.	.	.	8eJ	.
*	*	*v	*v	*
4D	.	8gL)	.
.	.	(8ccJ	.
=491	=491	=491	=491
2D	2I	8aL	2ccc_
.	.	8fJ	.
.	.	8aL	.
.	.	[8ccJ	.
=492	=492	=492	=492
*	*	*^	*
4D	4V7c	4g	8cc])	2ccc]
.	.	.	4b-	.
4D	4I	4f	.	.
.	.	.	[8a	.
=493	=493	=493	=493	=493
4P	4iib	4B-	8a]	4ddd
.	.	.	4g	.
4D	4V7	4c	.	4eee
.	.	.	8b-	.
*	*	*v	*v	*
*	*	*clefF4	*
=494	=494	=494	=494
2T	2I	8r	4fff
.	.	8F	.
.	.	8AL	8r
.	.	8cJ	8cc 8ccc
=495	=495	=495	=495
4.T	4.I	16fLL	(8aL 8aa
.	.	16F	.
.	.	16c	8fJ 8ff
.	.	16FJJ	.
.	.	16fLL	8aL 8aa
.	.	16F	.
8T	8V7/IV	16e-	[8ccJ [8ccc
.	.	16FJJ	.
=496	=496	=496	=496
4.T	4.IVc	16dLL	8cc]) 8ccc]
.	.	16F	.
.	.	16e	4b- 4bb-
.	.	16FJJ	.
.	.	16fLL	.
.	.	16F	.
8T	8I	16c	8a 8aa
.	.	16FJJ	.
=497	=497	=497	=497
2T	2viio	16B-LL	8g'L 8gg'
.	.	16F	.
.	.	16A	8f'J 8ff'
.	.	16FJJ	.
.	.	16GLL	8e'L 8ee'
.	.	16F	.
.	.	16A	8f'J 8ff'
.	.	16FJJ	.
=498	=498	=498	=498
2T	2viio	16B-LL	4g 4gg
.	.	16F	.
.	.	16c	.
.	.	16FJJ	.
.	.	16dLL	8r
.	.	16F	.
.	.	16e	(8cc 8ccc
.	.	16FJJ	.
=499	=499	=499	=499
4.T	4.I	16fLL	8aL 8aa
.	.	16F	.
.	.	16c	8fJ 8ff
.	.	16FJJ	.
.	.	16fLL	8aL 8aa
.	.	16F	.
8T	8V7/IV	16e-	[8ccJ [8ccc
.	.	16FJJ	.
=500	=500	=500	=500
4.T	4.IVc	16dLL	8cc]) 8ccc]
.	.	16F	.
.	.	16e	4b- 4bb-
.	.	16FJJ	.
.	.	16fLL	.
.	.	16F	.
8T	8I	16c	[8a [8aa
.	.	16FJJ	.
=501	=501	=501	=501
2T	2viio	16B-LL	8aL] 8aa]
.	.	16F	.
.	.	16c	8g'J 8gg'
.	.	16FJJ	.
.	.	16GLL	8d'L 8dd'
.	.	16F	.
.	.	16B-	8e'J 8ee'
.	.	16FJJ	.
=502	=502	=502	=502
2T	2I	8FF'L	8fL 8ff
.	.	8F'J 8A' 8c'	16fffL
.	.	.	16eeeJJ
.	.	8AA'L	16fffLL
.	.	.	16eee
.	.	8F'J 8A' 8c'	16ddd
.	.	.	16cccJJ
=503	=503	=503	=503
2T	2V7	8C'L	16bb-LL
.	.	.	16aa
.	.	8G'J 8B-' 8c'	16gg
.	.	.	16ffJJ
.	.	8E'L	16eeLL
.	.	.	16dd
.	.	8G'J 8B-' 8c'	16cc
.	.	.	16b-JJ
=504	=504	=504	=504
4T	4I	8F'L	(16aLL
.	.	.	16b-
.	.	8A'J 8c'	16b
.	.	.	16ccJJ
4T	4vi	8D'L	20cc#LL
.	.	.	20dd
.	.	.	20ee-
.	.	8F'J 8A' 8d'	.
.	.	.	20ee
.	.	.	20ffJJ)
=505	=505	=505	=505
4P	4iib	8BB-'L	(16ff#LL
.	.	.	16gg
.	.	8G'J 8B-' 8d'	16ff#
.	.	.	16ggJJ
4D	4V7	8C'L	16ffLL
.	.	.	16ee
.	.	8G'J 8B-' 8c'	16dd
.	.	.	16ccJJ)
=506	=506	=506	=506
2T	2I	8FF'L	8ffL
.	.	8F'J 8A' 8c'	16fffL
.	.	.	16eeeJJ
.	.	8AA'L	16fffLL
.	.	.	16eee
.	.	8F'J 8A' 8c'	16ddd
.	.	.	16cccJJ
=507	=507	=507	=507
2T	2V7	8C'L	16bb-LL
.	.	.	16aa
.	.	8G'J 8B-' 8c'	16gg
.	.	.	16ffJJ
.	.	8E'L	16eeLL
.	.	.	16dd
.	.	8G'J 8B-' 8c'	16cc
.	.	.	16b-JJ
=508	=508	=508	=508
4T	4I	8F'L	(16aLL
.	.	.	16b-
.	.	8A'J 8c'	16b
.	.	.	16ccJJ
4T	4vi	8D'L	20cc#LL
.	.	.	20dd
.	.	.	20ee-
.	.	8F'J 8A' 8d'	.
.	.	.	20ee
.	.	.	20ffJJ)
=509	=509	=509	=509
4P	4iib	8BB-'L	(16ff#LL
.	.	.	16gg
.	.	8G'J 8B-' 8d'	16ff#
.	.	.	16ggJJ
4D	4V7	8C'L	16ffLL
.	.	.	16ee
.	.	8G'J 8B-' 8c'	16dd
.	.	.	16ccJJ)
=510	=510	=510	=510
2T	2I	4F 4A 4c	4ff
.	.	4r	8r
.	.	.	(8ccc
=511	=511	=511	=511
2T	2I	2r	8aaL
.	.	.	8ffJ
.	.	.	8aaL
.	.	.	8cccJ)
=512	=512	=512	=512
2T	2V	4C 4G 4B-	4ee
.	.	4r	8r
.	.	.	(8cc
=513	=513	=513	=513
2T	2V	2r	8gL
.	.	.	8eJ
.	.	.	8gL
.	.	.	8ccJ)
=514	=514	=514	=514
2T	2I	4FF 4F	4f
.	.	8r	8r
.	.	(8C	(8c
=515	=515	=515	=515
2T	2I	8AAL	8AL
.	.	8FFJ	8FJ
.	.	8AAL	8AL
.	.	8CJ)	8cJ)
=516	=516	=516	=516
2T	2I	4F	4f
.	.	4r	4r
=517	=517	=517	=517
2T	2V7	4CC 4C	4ee 4gg 4bb- 4ccc 4eee
.	.	4r	4r
=518	=518	=518	=518
2T	2I	4FFF 4FF	4ff 4aa 4ccc 4fff
.	.	4r	4r
=519	=519	=519	=519
2T	2I	2r;	2r;
==	==	==	==
*-	*-	*-	*-
